; generated by PrusaSlicer 2.7.1+MacOS-arm64 on 2024-08-06 at 21:59:46 UTC


;
;
; 

; external perimeters extrusion width = 0.45mm
; perimeters extrusion width = 0.45mm
; infill extrusion width = 0.45mm
; solid infill extrusion width = 0.45mm
; top infill extrusion width = 0.40mm
; first layer extrusion width = 0.42mm

M104 S200 ; set temperature
;TYPE:Custom
;Stats

;printbedMaxX = 180
;printbedMaxY = 180 
;firstLayerXDim = 107.033
;firstLayerYDim = 66.8915
;firstLayerCenterX = 89.9993
;firstLayerCenterY = 90.0235

G90 ; use absolute coordinates
M83 ; extruder relative mode
G28 ; home all without mesh bed level  
;G29 ; mesh bed leveling 
G92 E0.0
;G1 Y-2.0 X179 F2400
;G1 Z3 F720
;M109 S200 ; wait for extruder temp

;;;;;;auto probe print area only;;;;;;
;set global.minProbeX = 36.4827
;set global.maxProbeX = 143.516
;set global.minProbeY = 56.5778
;set global.maxProbeY = 123.469

T0 ; select tool 1

M568 P0 R{heat.coldExtrudeTemperature+5} S200 A1 ; (set extruder to standby to soften any protruding filament before probing )
M106 P0 S0 ;Start with fan off
M116 P0; Wait for bed before doing mesh probe.
M561 ; clear any bed transform
;M98 P"0:/sys/mesh.g" A36.4827 B143.516 C56.5778 D123.469 N30 ; set N to your desired distance between points
G29
;G29 S1 ; load small mesh
G1 X10 Y2  F2400 ; Move to Center
G1 Z3 F720 ; Raise Nozzle 
M568 P0 R{heat.coldExtrudeTemperature+5} S200 A2 ; (set standby and active temperatures for active tool.  Standby is 5 degrees above cold extrude temp )
M116 P0; Wait for all temps to stabilise


; intro line
G1 X170 F1000
G1 Z0.2 F720
G1 X110 E8 F900
G1 X40 E10 F700
G92 E0

;M221 S95 ; set flow

;START PRINTING

M109 S200 ; set temperature and wait for it to be reached
G21 ; set units to millimeters
G90 ; use absolute coordinates
M83 ; use relative distances for extrusion
; Filament gcode
M107
;LAYER_CHANGE
;Z:0.35
;HEIGHT:0.35
G1 Z.35 F600
;LAYER_NUMBER = 0
;LAYER_Z = 0.35
G1 E-3.2 F2400
G1 X38.138 Y72.221 F3600
G1 Z.35 F600
G1 E3.2 F2400
;TYPE:Skirt/Brim
;WIDTH:0.42
G1 F900
G1 X39.189 Y71.755 E.0577
G1 X99.189 Y56.755 E3.10383
G1 X100.812 Y56.755 E.08145
G1 X102.007 Y57.324 E.06642
G1 X142.007 Y87.324 E2.5093
G1 X143.031 Y88.584 E.08148
G1 X143.34 Y90.178 E.08149
G1 X142.863 Y91.73 E.08148
G1 X142.007 Y92.676 E.06403
G1 X102.007 Y122.676 E2.5093
G1 X100.511 Y123.306 E.08146
G1 X99.189 Y123.245 E.06642
G1 X39.189 Y108.245 E3.10383
G1 X37.756 Y107.481 E.0815
G1 X36.853 Y106.132 E.08147
G1 X36.655 Y105 E.05767
G1 X36.655 Y75 E1.50558
G1 X37.049 Y73.425 E.08148
G1 X38.098 Y72.266 E.07845
G1 E-3.2 F2400
G1 X38.098 Y72.266 F3600
G1 X100.9 Y118.2
G1 E3.2 F2400
;TYPE:Perimeter
;WIDTH:0.42
G1 F900
G1 X100.9 Y104.962 E.66436
G1 X100.84 Y104.647 E.01609
G1 X100.647 Y104.352 E.01769
G1 X100.387 Y104.174 E.01581
G1 X100.038 Y104.1 E.0179
G1 X40.9 Y104.1 E2.96789
G1 X40.9 Y75.9 E1.41524
G1 X100.038 Y75.9 E2.96789
G1 X100.349 Y75.841 E.01589
G1 X100.647 Y75.648 E.01782
G1 X100.84 Y75.353 E.01769
G1 X100.9 Y75.038 E.01609
G1 X100.9 Y61.8 E.66436
G1 X138.5 Y90 E2.35874
G1 X120.253 Y103.686 E1.1447
G1 X100.948 Y118.164 E1.21102
G1 X100.555 Y118.89 F3600
G1 F900
G1 X100.555 Y104.962 E.69899
G1 X100.484 Y104.701 E.01357
G1 X100.288 Y104.51 E.01373
G1 X100.038 Y104.445 E.01296
G1 X40.555 Y104.445 E2.98521
G1 X40.555 Y75.555 E1.44987
G1 X100.038 Y75.555 E2.98521
G1 X100.288 Y75.49 E.01296
G1 X100.484 Y75.299 E.01373
G1 X100.555 Y75.038 E.01357
G1 X100.555 Y61.11 E.69899
G1 X139.075 Y90 E2.41645
G1 X120.46 Y103.962 E1.16778
G1 X100.603 Y118.854 E1.24565
G1 X100.21 Y119.58 F3600
;TYPE:External perimeter
G1 F900
G1 X100.21 Y104.962 E.73362
G1 X100.173 Y104.856 E.00563
G1 X100.038 Y104.79 E.00754
G1 X40.21 Y104.79 E3.00252
G1 X40.21 Y75.21 E1.4845
G1 X100.038 Y75.21 E3.00252
G1 X100.139 Y75.177 E.00533
G1 X100.21 Y75.038 E.00783
G1 X100.21 Y60.42 E.73362
G1 X139.65 Y90 E2.47416
G1 X120.667 Y104.238 E1.19087
G1 X100.258 Y119.544 E1.28028
G1 X100.206 Y119.147 F3600
G1 E-3.2 F2400
G1 X137.926 Y90.302 F3600
G1 E3.2 F2400
;TYPE:Solid infill
;WIDTH:0.420553
G1 F900
G1 X136.287 Y88.664 E.11648
G1 X134.333 Y87.198 E.12279
G1 X137.536 Y90.4 E.22766
G1 X137.256 Y90.61 E.01759
G1 X132.379 Y85.732 E.34673
G1 X130.425 Y84.267 E.12276
G1 X136.977 Y90.819 E.46576
G1 X136.698 Y91.028 E.01752
G1 X128.471 Y82.801 E.58484
G1 X126.517 Y81.336 E.12276
G1 X136.419 Y91.238 E.70391
G1 X136.14 Y91.447 E.01752
G1 X124.563 Y79.87 E.82298
G1 X122.609 Y78.405 E.12276
G1 X135.861 Y91.656 E.94201
G1 X135.581 Y91.866 E.01759
G1 X120.655 Y76.939 E1.06109
G1 X118.7 Y75.473 E.12283
G1 X135.302 Y92.075 E1.18019
G1 X135.023 Y92.285 E.01755
G1 X116.746 Y74.008 E1.29926
G1 X114.792 Y72.542 E.12279
G1 X134.744 Y92.494 E1.41833
G1 X134.465 Y92.703 E.01752
G1 X112.838 Y71.077 E1.53737
G1 X110.884 Y69.611 E.12279
G1 X134.186 Y92.913 E1.65648
G1 X133.906 Y93.122 E.01756
G1 X108.93 Y68.145 E1.77551
G1 X106.976 Y66.68 E.12276
G1 X133.627 Y93.331 E1.89455
G1 X133.348 Y93.541 E.01755
G1 X105.022 Y65.214 E2.01366
G1 X103.067 Y63.749 E.1228
G1 X133.069 Y93.75 E2.13273
G1 X132.79 Y93.96 E.01755
G1 X101.158 Y62.328 E2.24863
G1 X101.158 Y62.816 E.02453
G1 X132.511 Y94.169 E2.2288
G1 X132.232 Y94.378 E.01752
G1 X101.158 Y63.305 E2.20893
G1 X101.158 Y63.793 E.02453
G1 X131.952 Y94.588 E2.1891
G1 X131.673 Y94.797 E.01752
G1 X101.158 Y64.281 E2.16927
G1 X101.157 Y64.77 E.02458
G1 X131.394 Y95.006 E2.14943
G1 X131.115 Y95.216 E.01755
G1 X101.157 Y65.258 E2.12963
G1 X101.157 Y65.746 E.02453
G1 X130.836 Y95.425 E2.1098
G1 X130.557 Y95.635 E.01755
G1 X101.157 Y66.235 E2.08997
G1 X101.157 Y66.723 E.02453
G1 X130.277 Y95.844 E2.0701
G1 X129.998 Y96.053 E.01752
G1 X101.156 Y67.211 E2.0503
G1 X101.156 Y67.7 E.02458
G1 X129.719 Y96.263 E2.03047
G1 X129.44 Y96.472 E.01752
G1 X101.156 Y68.188 E2.01063
G1 X101.156 Y68.676 E.02453
G1 X129.161 Y96.681 E1.9908
G1 X128.882 Y96.891 E.01755
G1 X101.156 Y69.165 E1.97097
G1 X101.155 Y69.653 E.02453
G1 X128.602 Y97.1 E1.95113
G1 X128.323 Y97.309 E.01752
G1 X101.155 Y70.141 E1.9313
G1 X101.155 Y70.63 E.02458
G1 X128.044 Y97.519 E1.91147
G1 X127.765 Y97.728 E.01752
G1 X101.155 Y71.118 E1.89163
G1 X101.155 Y71.606 E.02453
G1 X127.486 Y97.938 E1.87184
G1 X127.207 Y98.147 E.01752
G1 X101.154 Y72.095 E1.852
G1 X101.154 Y72.583 E.02453
G1 X126.928 Y98.356 E1.83217
G1 X126.648 Y98.566 E.01759
G1 X101.154 Y73.071 E1.81234
G1 X101.154 Y73.56 E.02458
G1 X126.369 Y98.775 E1.79247
G1 X126.09 Y98.984 E.01752
G1 X101.154 Y74.048 E1.77263
G1 X101.153 Y74.536 E.02453
G1 X125.811 Y99.194 E1.75287
G1 X125.532 Y99.403 E.01752
G1 X101.153 Y75.025 E1.733
G1 X101.153 Y75.151 E.00633
G1 X101.08 Y75.44 E.01498
G1 X125.253 Y99.613 E1.71839
G1 X124.973 Y99.822 E.01756
G1 X100.899 Y75.748 E1.71136
G1 X100.642 Y75.979 E.01737
G1 X124.694 Y100.031 E1.70979
G1 X124.415 Y100.241 E.01755
G1 X100.3 Y76.126 E1.71427
G1 X100.042 Y76.158 E.01307
G1 X99.844 Y76.158 E.00995
G1 X124.136 Y100.45 E1.72685
G1 X123.857 Y100.659 E.01752
G1 X99.356 Y76.158 E1.74171
G1 X98.867 Y76.158 E.02458
G1 X123.578 Y100.869 E1.75664
G1 X123.298 Y101.078 E.01756
G1 X98.379 Y76.158 E1.77146
G1 X97.89 Y76.158 E.02458
G1 X123.019 Y101.287 E1.78635
G1 X122.74 Y101.497 E.01755
G1 X97.402 Y76.158 E1.80125
G1 X96.913 Y76.158 E.02458
G1 X122.461 Y101.706 E1.81614
G1 X122.182 Y101.916 E.01755
G1 X96.425 Y76.158 E1.83103
G1 X95.936 Y76.158 E.02458
G1 X121.903 Y102.125 E1.84592
G1 X121.623 Y102.334 E.01756
G1 X95.448 Y76.158 E1.86075
G1 X94.959 Y76.158 E.02458
G1 X121.344 Y102.544 E1.87567
G1 X121.065 Y102.753 E.01752
G1 X94.471 Y76.158 E1.89053
G1 X93.982 Y76.158 E.02458
G1 X120.786 Y102.962 E1.90542
G1 X120.507 Y103.172 E.01755
G1 X93.493 Y76.158 E1.92035
G1 X93.005 Y76.158 E.02453
G1 X120.228 Y103.381 E1.93521
G1 X119.949 Y103.591 E.01755
G1 X92.516 Y76.158 E1.95014
G1 X92.028 Y76.158 E.02453
G1 X119.669 Y103.8 E1.96496
G1 X119.39 Y104.009 E.01752
G1 X91.539 Y76.158 E1.97985
G1 X91.051 Y76.158 E.02453
G1 X119.111 Y104.219 E1.99475
G1 X118.832 Y104.428 E.01752
G1 X90.562 Y76.158 E2.00964
G1 X90.074 Y76.158 E.02453
G1 X118.553 Y104.637 E2.0245
G1 X118.274 Y104.847 E.01755
G1 X89.585 Y76.158 E2.03942
G1 X89.097 Y76.158 E.02453
G1 X117.994 Y105.056 E2.05425
G1 X117.715 Y105.266 E.01755
G1 X88.608 Y76.158 E2.06917
G1 X88.12 Y76.158 E.02453
G1 X117.436 Y105.475 E2.08403
G1 X117.157 Y105.684 E.01752
G1 X87.631 Y76.158 E2.09892
G1 X87.143 Y76.158 E.02453
G1 X116.878 Y105.894 E2.11382
G1 X116.599 Y106.103 E.01752
G1 X86.654 Y76.158 E2.12871
G1 X86.166 Y76.158 E.02453
G1 X116.319 Y106.312 E2.14353
G1 X116.04 Y106.522 E.01755
G1 X85.677 Y76.158 E2.15846
G1 X85.188 Y76.158 E.02458
G1 X115.761 Y106.731 E2.17335
G1 X115.482 Y106.94 E.01752
G1 X84.7 Y76.158 E2.18821
G1 X84.211 Y76.158 E.02458
G1 X115.203 Y107.15 E2.20314
G1 X114.924 Y107.359 E.01752
G1 X83.723 Y76.158 E2.218
G1 X83.234 Y76.158 E.02458
G1 X114.644 Y107.569 E2.23289
G1 X114.365 Y107.778 E.01752
G1 X82.746 Y76.158 E2.24775
G1 X82.257 Y76.158 E.02458
G1 X114.086 Y107.987 E2.26264
G1 X113.807 Y108.197 E.01755
G1 X81.769 Y76.158 E2.27753
G1 X81.28 Y76.158 E.02458
G1 X113.528 Y108.406 E2.29242
G1 X113.249 Y108.615 E.01752
G1 X80.792 Y76.158 E2.30728
G1 X80.303 Y76.158 E.02458
G1 X112.97 Y108.825 E2.32221
G1 X112.69 Y109.034 E.01756
G1 X79.815 Y76.158 E2.33703
G1 X79.326 Y76.158 E.02458
G1 X112.411 Y109.244 E2.35196
G1 X112.132 Y109.453 E.01752
G1 X78.838 Y76.158 E2.36682
G1 X78.349 Y76.158 E.02458
G1 X111.853 Y109.662 E2.38171
G1 X111.574 Y109.872 E.01755
G1 X77.861 Y76.158 E2.3966
G1 X77.372 Y76.158 E.02458
G1 X111.295 Y110.081 E2.4115
G1 X111.015 Y110.29 E.01756
G1 X76.883 Y76.158 E2.42635
G1 X76.395 Y76.158 E.02453
G1 X110.736 Y110.5 E2.44125
G1 X110.457 Y110.709 E.01752
G1 X75.906 Y76.158 E2.45614
G1 X75.418 Y76.158 E.02453
G1 X110.178 Y110.918 E2.471
G1 X109.899 Y111.128 E.01755
G1 X74.929 Y76.158 E2.48592
G1 X74.441 Y76.158 E.02453
G1 X109.62 Y111.337 E2.50078
G1 X109.34 Y111.547 E.01759
G1 X73.952 Y76.158 E2.51567
G1 X73.464 Y76.158 E.02453
G1 X109.061 Y111.756 E2.53053
G1 X108.782 Y111.965 E.01752
G1 X72.975 Y76.158 E2.54542
G1 X72.487 Y76.158 E.02453
G1 X100.186 Y103.857 E1.96905
G1 X100.444 Y103.917 E.01331
G1 X100.623 Y104.006 E.01005
G1 X100.875 Y104.216 E.01649
G1 X101.044 Y104.468 E.01525
G1 X101.112 Y104.643 E.00944
G1 X101.147 Y104.819 E.00902
G1 X108.503 Y112.175 E.52292
G1 X108.224 Y112.384 E.01752
G1 X101.153 Y105.314 E.50262
G1 X101.153 Y105.802 E.02453
G1 X107.945 Y112.593 E.48279
G1 X107.666 Y112.803 E.01755
G1 X101.154 Y106.291 E.46292
G1 X101.154 Y106.78 E.02458
G1 X107.386 Y113.012 E.44302
G1 X107.107 Y113.222 E.01755
G1 X101.154 Y107.268 E.42322
G1 X101.154 Y107.757 E.02458
G1 X106.828 Y113.431 E.40335
G1 X106.549 Y113.64 E.01752
G1 X101.154 Y108.246 E.38348
G1 X101.155 Y108.735 E.02458
G1 X106.27 Y113.85 E.36361
G1 X105.991 Y114.059 E.01752
G1 X101.155 Y109.223 E.34378
G1 X101.155 Y109.712 E.02458
G1 X105.711 Y114.268 E.32387
G1 X105.432 Y114.478 E.01755
G1 X101.155 Y110.201 E.30404
G1 X101.155 Y110.69 E.02458
G1 X105.153 Y114.687 E.28417
G1 X104.874 Y114.897 E.01755
G1 X101.156 Y111.178 E.26434
G1 X101.156 Y111.667 E.02458
G1 X104.595 Y115.106 E.24447
G1 X104.316 Y115.315 E.01752
G1 X101.156 Y112.156 E.2246
G1 X101.156 Y112.644 E.02453
G1 X104.036 Y115.525 E.20477
G1 X103.757 Y115.734 E.01752
G1 X101.156 Y113.133 E.1849
G1 X101.157 Y113.622 E.02458
G1 X103.478 Y115.943 E.16499
G1 X103.199 Y116.153 E.01755
G1 X101.157 Y114.111 E.14516
G1 X101.157 Y114.599 E.02453
G1 X102.92 Y116.362 E.12533
G1 X102.641 Y116.571 E.01752
G1 X101.157 Y115.088 E.10546
G1 X101.158 Y115.577 E.02458
G1 X102.361 Y116.781 E.08555
G1 X102.082 Y116.99 E.01752
G1 X101.158 Y116.066 E.06568
G1 X101.158 Y116.554 E.02453
G1 X101.803 Y117.2 E.04589
G1 X101.524 Y117.409 E.01752
G1 X101.158 Y117.043 E.02602
G1 X101.158 Y117.532 E.02458
G1 X101.356 Y117.729 E.01404
G1 E-3.2 F2400
G1 X101.356 Y117.729 F3600
G1 X99.837 Y103.997
G1 E3.2 F2400
G1 F900
G1 X71.998 Y76.158 E1.979
G1 X71.51 Y76.158 E.02453
G1 X99.193 Y103.842 E1.96795
G1 X98.704 Y103.842 E.02458
G1 X71.021 Y76.158 E1.96795
G1 X70.533 Y76.158 E.02453
G1 X98.216 Y103.842 E1.96795
G1 X97.727 Y103.842 E.02458
G1 X70.044 Y76.158 E1.96795
G1 X69.556 Y76.158 E.02453
G1 X97.239 Y103.842 E1.96795
G1 X96.75 Y103.842 E.02458
G1 X69.067 Y76.158 E1.96795
G1 X68.578 Y76.158 E.02458
G1 X96.262 Y103.842 E1.96798
G1 X95.773 Y103.842 E.02458
G1 X68.09 Y76.158 E1.96795
G1 X67.601 Y76.158 E.02458
G1 X95.285 Y103.842 E1.96798
G1 X94.796 Y103.842 E.02458
G1 X67.113 Y76.158 E1.96795
G1 X66.624 Y76.158 E.02458
G1 X94.307 Y103.842 E1.96795
G1 X93.819 Y103.842 E.02453
G1 X66.136 Y76.158 E1.96795
G1 X65.647 Y76.158 E.02458
G1 X93.33 Y103.842 E1.96795
G1 X92.842 Y103.842 E.02453
G1 X65.159 Y76.158 E1.96795
G1 X64.67 Y76.158 E.02458
G1 X92.353 Y103.842 E1.96795
G1 X91.865 Y103.842 E.02453
G1 X64.182 Y76.158 E1.96795
G1 X63.693 Y76.158 E.02458
G1 X91.376 Y103.842 E1.96795
G1 X90.888 Y103.842 E.02453
G1 X63.205 Y76.158 E1.96795
G1 X62.716 Y76.158 E.02458
G1 X90.399 Y103.842 E1.96795
G1 X89.911 Y103.842 E.02453
G1 X62.228 Y76.158 E1.96795
G1 X61.739 Y76.158 E.02458
G1 X89.422 Y103.842 E1.96795
G1 X88.934 Y103.842 E.02453
G1 X61.251 Y76.158 E1.96795
G1 X60.762 Y76.158 E.02458
G1 X88.445 Y103.842 E1.96795
G1 X87.957 Y103.842 E.02453
G1 X60.274 Y76.158 E1.96795
G1 X59.785 Y76.158 E.02458
G1 X87.468 Y103.842 E1.96795
G1 X86.98 Y103.842 E.02453
G1 X59.296 Y76.158 E1.96798
G1 X58.808 Y76.158 E.02453
G1 X86.491 Y103.842 E1.96795
G1 X86.003 Y103.842 E.02453
G1 X58.319 Y76.158 E1.96798
G1 X57.831 Y76.158 E.02453
G1 X85.514 Y103.842 E1.96795
G1 X85.025 Y103.842 E.02458
G1 X57.342 Y76.158 E1.96795
G1 X56.854 Y76.158 E.02453
G1 X84.537 Y103.842 E1.96795
G1 X84.048 Y103.842 E.02458
G1 X56.365 Y76.158 E1.96795
G1 X55.877 Y76.158 E.02453
G1 X83.56 Y103.842 E1.96795
G1 X83.071 Y103.842 E.02458
G1 X55.388 Y76.158 E1.96795
G1 X54.9 Y76.158 E.02453
G1 X82.583 Y103.842 E1.96795
G1 X82.094 Y103.842 E.02458
G1 X54.411 Y76.158 E1.96795
G1 X53.923 Y76.158 E.02453
G1 X81.606 Y103.842 E1.96795
G1 X81.117 Y103.842 E.02458
G1 X53.434 Y76.158 E1.96795
G1 X52.946 Y76.158 E.02453
G1 X80.629 Y103.842 E1.96795
G1 X80.14 Y103.842 E.02458
G1 X52.457 Y76.158 E1.96795
G1 X51.969 Y76.158 E.02453
G1 X79.652 Y103.842 E1.96795
G1 X79.163 Y103.842 E.02458
G1 X51.48 Y76.158 E1.96795
G1 X50.991 Y76.158 E.02458
G1 X78.675 Y103.842 E1.96798
G1 X78.186 Y103.842 E.02458
G1 X50.503 Y76.158 E1.96795
G1 X50.014 Y76.158 E.02458
G1 X77.698 Y103.842 E1.96798
G1 X77.209 Y103.842 E.02458
G1 X49.526 Y76.158 E1.96795
G1 X49.037 Y76.158 E.02458
G1 X76.72 Y103.842 E1.96795
G1 X76.232 Y103.842 E.02453
G1 X48.549 Y76.158 E1.96795
G1 X48.06 Y76.158 E.02458
G1 X75.743 Y103.842 E1.96795
G1 X75.255 Y103.842 E.02453
G1 X47.572 Y76.158 E1.96795
G1 X47.083 Y76.158 E.02458
G1 X74.766 Y103.842 E1.96795
G1 X74.278 Y103.842 E.02453
G1 X46.595 Y76.158 E1.96795
G1 X46.106 Y76.158 E.02458
G1 X73.789 Y103.842 E1.96795
G1 X73.301 Y103.842 E.02453
G1 X45.618 Y76.158 E1.96795
G1 X45.129 Y76.158 E.02458
G1 X72.812 Y103.842 E1.96795
G1 X72.324 Y103.842 E.02453
G1 X44.641 Y76.158 E1.96795
G1 X44.152 Y76.158 E.02458
G1 X71.835 Y103.842 E1.96795
G1 X71.347 Y103.842 E.02453
G1 X43.664 Y76.158 E1.96795
G1 X43.175 Y76.158 E.02458
G1 X70.858 Y103.842 E1.96795
G1 X70.37 Y103.842 E.02453
G1 X42.686 Y76.158 E1.96798
G1 X42.198 Y76.158 E.02453
G1 X69.881 Y103.842 E1.96795
G1 X69.393 Y103.842 E.02453
G1 X41.709 Y76.158 E1.96798
G1 X41.221 Y76.158 E.02453
G1 X68.904 Y103.842 E1.96795
G1 X68.415 Y103.842 E.02458
G1 X41.158 Y76.585 E1.93763
G1 X41.158 Y77.073 E.02453
G1 X67.927 Y103.842 E1.90294
G1 X67.438 Y103.842 E.02458
G1 X41.158 Y77.562 E1.86818
G1 X41.158 Y78.05 E.02453
G1 X66.95 Y103.842 E1.83348
G1 X66.461 Y103.842 E.02458
G1 X41.158 Y78.539 E1.79872
G1 X41.158 Y79.027 E.02453
G1 X65.973 Y103.842 E1.76403
G1 X65.484 Y103.842 E.02458
G1 X41.158 Y79.516 E1.72927
G1 X41.158 Y80.004 E.02453
G1 X64.996 Y103.842 E1.69458
G1 X64.507 Y103.842 E.02458
G1 X41.158 Y80.493 E1.65982
G1 X41.158 Y80.981 E.02453
G1 X64.019 Y103.842 E1.62513
G1 X63.53 Y103.842 E.02458
G1 X41.158 Y81.47 E1.59037
