; generated by PrusaSlicer 2.7.1+MacOS-arm64 on 2024-03-23 at 00:15:42 UTC


;
;
; 

; external perimeters extrusion width = 0.45mm
; perimeters extrusion width = 0.45mm
; infill extrusion width = 0.45mm
; solid infill extrusion width = 0.45mm
; top infill extrusion width = 0.40mm
; first layer extrusion width = 0.42mm

M104 S200 ; set temperature
;TYPE:Custom
;Stats

;printbedMaxX = 180
;printbedMaxY = 180 
;firstLayerXDim = 115.433
;firstLayerYDim = 115.289
;firstLayerCenterX = 90.0006
;firstLayerCenterY = 90

G90 ; use absolute coordinates
M83 ; extruder relative mode
;M104 S170 ; set extruder temp for bed leveling
;M109 R170 ; wait for bed leveling temp
G28 ; home all without mesh bed level
;G30; 
;G29 ; mesh bed leveling 
G92 E0.0
;G1 Y-2.0 X179 F2400
;G1 Z3 F720
;M109 S200 ; wait for extruder temp

;;;;;;auto probe print area only;;;;;;
set global.minProbeX = 32.2839
set global.maxProbeX = 147.717
set global.minProbeY = 32.3555
set global.maxProbeY = 147.645
T0 ; select tool 1
;M568 P0 R{heat.coldExtrudeTemperature+5} S200 A1 ; (set extruder to standby to soften any protruding filament before probing )
M106 P0 S0 ;Start with fan off
M116 P0; Wait for bed before doing mesh probe.
M561 ; clear any bed transform
M98 P"0:/sys/mesh.g" A32.2839 B147.717 C32.3555 D147.645 N30 ; set N to your desired distance between points
G29 S1 ; load small mesh
G1 X10 Y2  F2400 ; Move to Center
G1 Z3 F720 ; Raise Nozzle 
M568 P0 R{heat.coldExtrudeTemperature+5} S200 A2 ; (set standby and active temperatures for active tool.  Standby is 5 degrees above cold extrude temp )
M116 P0; Wait for all temps to stabilise

; intro line
;G1 X35 F1000
;G1 Z0.2 F720
;G1 X45.0 E8.0 F900
;G1 X40.0 E10.0 F700
;G92 E0.0

M221 S95 ; set flow

;START PRINTING

M109 S200 ; set temperature and wait for it to be reached
G21 ; set units to millimeters
G90 ; use absolute coordinates
M83 ; use relative distances for extrusion
; Filament gcode
M107
;LAYER_CHANGE
;Z:0.35
;HEIGHT:0.35
G1 Z.35 F7800
;LAYER_NUMBER = 0
;LAYER_Z = 0.35
G1 E-3.2 F2400
G1 X48.173 Y50.487 F7800
G1 Z.35
G1 E3.2 F2400
;TYPE:Skirt/Brim
;WIDTH:0.42
G1 F600
G1 X52.434 Y46.421 E.29558
G1 X58.039 Y42.158 E.35341
G1 X63.103 Y39.128 E.29616
G1 X69.051 Y36.413 E.32813
G1 X74.606 Y34.552 E.29401
G1 X80.666 Y33.217 E.31142
G1 X86.769 Y32.547 E.30812
G1 X92.908 Y32.531 E.30809
G1 X99.135 Y33.187 E.31424
G1 X104.984 Y34.45 E.3003
G1 X111.656 Y36.695 E.35329
G1 X116.98 Y39.172 E.29469
G1 X122.3 Y42.375 E.31164
G1 X127.256 Y46.143 E.31244
G1 X131.702 Y50.349 E.30715
G1 X135.727 Y55.068 E.31127
G1 X139.22 Y60.19 E.31114
G1 X142.256 Y65.903 E.32468
G1 X144.385 Y71.224 E.28762
G1 X146.195 Y77.608 E.33302
G1 X147.147 Y83.34 E.29161
G1 X147.532 Y90.445 E.35709
G1 X147.212 Y96.178 E.28816
G1 X146.159 Y102.543 E.32378
G1 X144.489 Y108.498 E.31039
G1 X142.19 Y114.239 E.31036
G1 X139.288 Y119.7 E.31036
G1 X135.816 Y124.817 E.31034
G1 X131.771 Y129.58 E.3136
G1 X127.586 Y133.559 E.28981
G1 X121.928 Y137.863 E.35677
G1 X116.784 Y140.929 E.30053
G1 X110.908 Y143.602 E.32397
G1 X105.3 Y145.473 E.29669
G1 X99.258 Y146.795 E.3104
G1 X93.111 Y147.461 E.3103
G1 X86.927 Y147.462 E.31035
G1 X80.686 Y146.786 E.31504
G1 X74.969 Y145.539 E.29366
G1 X68.305 Y143.288 E.353
G1 X62.907 Y140.766 E.29901
G1 X57.615 Y137.566 E.31036
G1 X52.697 Y133.816 E.31038
G1 X48.211 Y129.561 E.3103
G1 X44.207 Y124.848 E.31036
G1 X40.688 Y119.66 E.31461
G1 X37.771 Y114.158 E.31253
G1 X35.6 Y108.738 E.29302
G1 X33.83 Y102.5 E.32542
G1 X32.848 Y96.632 E.29859
G1 X32.465 Y89.598 E.35353
G1 X32.796 Y83.747 E.29411
G1 X33.812 Y77.58 E.31367
G1 X35.473 Y71.609 E.31104
G1 X37.771 Y65.842 E.31155
G1 X40.666 Y60.376 E.31042
G1 X44.115 Y55.275 E.30902
G1 X48.118 Y50.539 E.31121
G1 X48.129 Y50.529 E.00075
G1 E-3.2 F2400
G1 X48.129 Y50.529 F7800
G1 X53.068 Y55.029
G1 E3.2 F2400
G1 F600
G1 X57.051 Y51.254 E.27541
G1 X61.495 Y47.877 E.28011
G1 X66.201 Y45.05 E.27551
G1 X71.207 Y42.737 E.27675
G1 X76.42 Y40.984 E.27602
G1 X81.781 Y39.807 E.27545
G1 X87.237 Y39.213 E.27543
G1 X92.744 Y39.212 E.27637
G1 X98.219 Y39.807 E.27639
G1 X103.576 Y40.984 E.27526
G1 X108.812 Y42.745 E.27724
G1 X113.799 Y45.05 E.27572
G1 X118.52 Y47.886 E.27639
G1 X122.906 Y51.217 E.2764
G1 X126.945 Y55.043 E.27921
G1 X130.496 Y59.227 E.27541
G1 X133.586 Y63.786 E.2764
G1 X136.165 Y68.652 E.27638
G1 X138.199 Y73.761 E.27597
G1 X139.671 Y79.057 E.27586
G1 X140.557 Y84.455 E.27453
G1 X140.86 Y90.014 E.2794
G1 X140.567 Y95.471 E.27426
G1 X139.679 Y100.906 E.27638
G1 X138.208 Y106.214 E.27643
G1 X136.149 Y111.382 E.27919
G1 X133.577 Y116.23 E.27542
G1 X130.497 Y120.773 E.27545
G1 X126.945 Y124.957 E.27544
G1 X122.964 Y128.732 E.27533
G1 X118.487 Y132.134 E.28219
G1 X113.799 Y134.95 E.27445
G1 X108.773 Y137.27 E.27781
G1 X103.58 Y139.016 E.27495
G1 X98.201 Y140.196 E.27637
G1 X92.744 Y140.788 E.27547
G1 X87.237 Y140.787 E.27637
G1 X81.781 Y140.193 E.27543
G1 X76.402 Y139.011 E.27639
G1 X71.2 Y137.26 E.27546
G1 X66.212 Y134.956 E.27574
G1 X61.414 Y132.068 E.28105
G1 X57.051 Y128.747 E.27518
G1 X53.055 Y124.957 E.2764
G1 X49.503 Y120.773 E.27544
G1 X46.414 Y116.214 E.27637
G1 X43.835 Y111.348 E.27638
G1 X41.799 Y106.237 E.2761
G1 X40.329 Y100.943 E.27574
G1 X39.439 Y95.524 E.2756
G1 X39.139 Y90.007 E.27728
G1 X39.433 Y84.529 E.27531
G1 X40.321 Y79.094 E.27638
G1 X41.792 Y73.786 E.27643
G1 X43.851 Y68.618 E.27919
G1 X46.423 Y63.77 E.27542
G1 X49.504 Y59.227 E.27548
G1 X53.029 Y55.075 E.27334
G1 X53.292 Y55.298 F7800
G1 F600
G1 X53.325 Y55.259 E.00256
G1 X57.281 Y51.511 E.27349
G1 X61.68 Y48.168 E.27728
G1 X66.354 Y45.359 E.27367
G1 X71.326 Y43.061 E.27489
G1 X76.503 Y41.319 E.27413
G1 X81.846 Y40.145 E.27454
G1 X87.265 Y39.557 E.27355
G1 X92.735 Y39.557 E.27452
G1 X98.173 Y40.148 E.27452
G1 X103.492 Y41.319 E.27333
G1 X108.694 Y43.069 E.27544
G1 X113.646 Y45.359 E.27381
G1 X118.334 Y48.177 E.27451
G1 X122.69 Y51.486 E.27453
G1 X126.688 Y55.273 E.27637
G1 X130.216 Y59.428 E.27355
G1 X133.286 Y63.956 E.27455
G1 X135.848 Y68.788 E.27448
G1 X137.869 Y73.862 E.2741
G1 X139.332 Y79.122 E.274
G1 X140.213 Y84.483 E.27266
G1 X140.515 Y90.023 E.27844
G1 X140.223 Y95.443 E.2724
G1 X139.34 Y100.841 E.2745
G1 X137.879 Y106.112 E.2745
G1 X135.84 Y111.228 E.27639
G1 X133.286 Y116.044 E.27358
G1 X130.216 Y120.572 E.27455
G1 X126.688 Y124.727 E.27355
G1 X122.734 Y128.475 E.27342
G1 X118.302 Y131.843 E.27936
G1 X113.646 Y134.641 E.27261
G1 X108.654 Y136.946 E.27595
G1 X103.497 Y138.681 E.27306
G1 X98.154 Y139.855 E.27454
G1 X92.716 Y140.444 E.27451
G1 X87.246 Y140.442 E.27452
G1 X81.827 Y139.852 E.27356
G1 X76.485 Y138.676 E.27451
G1 X71.319 Y136.936 E.27357
G1 X66.365 Y134.647 E.27388
G1 X61.615 Y131.788 E.27823
G1 X57.282 Y128.49 E.27328
G1 X53.312 Y124.727 E.27452
G1 X49.784 Y120.572 E.27355
G1 X46.714 Y116.044 E.27455
G1 X44.152 Y111.212 E.27448
G1 X42.129 Y106.136 E.27423
G1 X40.668 Y100.878 E.27387
G1 X39.783 Y95.496 E.27373
G1 X39.483 Y89.998 E.27633
G1 X39.777 Y84.557 E.27346
G1 X40.66 Y79.159 E.2745
G1 X42.121 Y73.888 E.2745
G1 X44.16 Y68.771 E.27644
G1 X46.714 Y63.956 E.27353
G1 X49.784 Y59.428 E.27455
G1 X53.253 Y55.344 E.26892
G1 X53.516 Y55.567 F7800
G1 F600
G1 X53.582 Y55.49 E.00509
G1 X57.512 Y51.768 E.27165
G1 X61.866 Y48.458 E.27448
G1 X66.507 Y45.668 E.27176
G1 X71.445 Y43.385 E.27302
G1 X76.586 Y41.654 E.27224
G1 X81.892 Y40.487 E.27265
G1 X87.293 Y39.901 E.27264
G1 X92.726 Y39.902 E.27266
G1 X98.126 Y40.49 E.27261
G1 X103.409 Y41.654 E.27149
G1 X108.575 Y43.393 E.27356
G1 X113.493 Y45.668 E.27194
G1 X118.148 Y48.468 E.27262
G1 X122.474 Y51.755 E.27267
G1 X126.431 Y55.503 E.27353
G1 X129.936 Y59.63 E.27173
G1 X132.986 Y64.126 E.27266
G1 X135.531 Y68.925 E.27261
G1 X137.54 Y73.964 E.27224
G1 X138.997 Y79.205 E.273
G1 X139.872 Y84.53 E.27082
G1 X140.17 Y90.032 E.27653
G1 X139.879 Y95.415 E.27055
G1 X139.001 Y100.776 E.27263
G1 X137.549 Y106.011 E.27264
G1 X135.531 Y111.075 E.27358
G1 X132.995 Y115.858 E.27169
G1 X129.947 Y120.355 E.27264
G1 X126.431 Y124.497 E.27266
G1 X122.503 Y128.218 E.27154
G1 X118.116 Y131.552 E.27653
G1 X113.493 Y134.332 E.27073
G1 X108.536 Y136.622 E.27404
G1 X103.414 Y138.346 E.27122
G1 X98.108 Y139.513 E.27265
G1 X92.707 Y140.099 E.27264
G1 X87.274 Y140.098 E.27266
G1 X81.892 Y139.513 E.27169
G1 X76.586 Y138.346 E.27265
G1 X71.438 Y136.612 E.27262
G1 X66.518 Y134.338 E.27201
G1 X61.816 Y131.507 E.27544
G1 X57.512 Y128.233 E.27139
G1 X53.569 Y124.497 E.2726
G1 X50.053 Y120.356 E.27263
G1 X47.005 Y115.858 E.27268
G1 X44.461 Y111.058 E.27263
G1 X42.453 Y106.017 E.27232
G1 X41.003 Y100.795 E.27199
G1 X40.125 Y95.45 E.27184
G1 X39.828 Y89.988 E.27452
G1 X40.121 Y84.585 E.27155
G1 X40.999 Y79.224 E.27263
G1 X42.451 Y73.989 E.27264
G1 X44.469 Y68.925 E.27358
G1 X47.014 Y64.126 E.27261
G1 X50.064 Y59.63 E.27266
G1 X53.477 Y55.613 E.26454
G1 E-3.2 F2400
G1 X53.477 Y55.613 F7800
G1 X92.891 Y139.002
G1 E3.2 F2400
;TYPE:Perimeter
;WIDTH:0.42
G1 F600
G1 X92.658 Y139.027 E.01176
G1 X87.342 Y139.027 E.26679
G1 X82.057 Y138.452 E.2668
G1 X76.865 Y137.309 E.2668
G1 X71.827 Y135.612 E.26679
G1 X67.013 Y133.385 E.26619
G1 X62.427 Y130.624 E.26864
G1 X58.214 Y127.421 E.2656
G1 X54.354 Y123.765 E.26682
G1 X50.913 Y119.713 E.26678
G1 X47.929 Y115.313 E.26681
G1 X45.439 Y110.616 E.2668
G1 X43.473 Y105.683 E.2665
G1 X42.049 Y100.555 E.26709
G1 X41.191 Y95.324 E.26603
G1 X40.902 Y89.979 E.26864
G1 X41.189 Y84.692 E.26572
G1 X42.049 Y79.445 E.26684
G1 X43.471 Y74.323 E.26677
G1 X45.439 Y69.384 E.26682
G1 X47.929 Y64.687 E.2668
G1 X50.913 Y60.287 E.26681
G1 X54.354 Y56.235 E.26678
G1 X58.2 Y52.592 E.26586
G1 X62.461 Y49.352 E.26864
G1 X67.002 Y46.621 E.26593
G1 X71.833 Y44.386 E.26714
G1 X76.865 Y42.691 E.26648
G1 X82.057 Y41.548 E.2668
G1 X87.342 Y40.973 E.2668
G1 X92.658 Y40.973 E.26679
G1 X97.943 Y41.548 E.2668
G1 X103.135 Y42.691 E.2668
G1 X108.173 Y44.388 E.26679
G1 X112.969 Y46.606 E.26518
G1 X117.557 Y49.364 E.26865
G1 X121.786 Y52.579 E.2666
G1 X125.646 Y56.235 E.26682
G1 X129.087 Y60.287 E.26678
G1 X132.071 Y64.687 E.26681
G1 X134.561 Y69.384 E.2668
G1 X136.52 Y74.298 E.26549
G1 X137.951 Y79.445 E.2681
G1 X138.806 Y84.655 E.26497
G1 X139.097 Y90.042 E.27075
G1 X139.061 Y90.709 E.03352
G1 X138.811 Y95.309 E.2312
G1 X137.951 Y100.555 E.26679
G1 X136.529 Y105.677 E.26677
G1 X134.561 Y110.616 E.26682
G1 X132.071 Y115.313 E.2668
G1 X129.087 Y119.713 E.26681
G1 X125.646 Y123.765 E.26678
G1 X121.815 Y127.394 E.26483
G1 X117.521 Y130.659 E.27072
G1 X112.999 Y133.379 E.26483
G1 X108.147 Y135.621 E.26824
G1 X103.135 Y137.309 E.26541
G1 X97.943 Y138.452 E.2668
G1 X92.95 Y138.995 E.25206
G1 X92.928 Y139.344 F7800
G1 F600
G1 X92.677 Y139.372 E.01267
G1 X87.323 Y139.372 E.2687
G1 X82.001 Y138.793 E.26867
G1 X76.772 Y137.642 E.2687
G1 X71.699 Y135.933 E.26865
G1 X66.851 Y133.69 E.26808
G1 X62.233 Y130.91 E.27051
G1 X57.99 Y127.685 E.26747
G1 X54.104 Y124.003 E.26866
G1 X50.638 Y119.922 E.26871
G1 X47.633 Y115.491 E.26869
G1 X45.126 Y110.761 E.26866
G1 X43.146 Y105.793 E.2684
G1 X41.712 Y100.629 E.26897
G1 X40.848 Y95.362 E.26786
G1 X40.556 Y89.979 E.27055
G1 X40.846 Y84.654 E.26764
G1 X41.712 Y79.371 E.26867
G1 X43.144 Y74.212 E.2687
G1 X45.126 Y69.239 E.26867
G1 X47.633 Y64.509 E.26866
G1 X50.638 Y60.078 E.26869
G1 X54.104 Y55.997 E.26871
G1 X57.976 Y52.328 E.2677
G1 X62.267 Y49.066 E.27051
G1 X66.84 Y46.315 E.26783
G1 X71.705 Y44.065 E.269
G1 X76.772 Y42.358 E.26833
G1 X82.001 Y41.207 E.2687
G1 X87.323 Y40.628 E.26867
G1 X92.677 Y40.628 E.2687
G1 X97.999 Y41.207 E.26867
G1 X103.228 Y42.358 E.2687
G1 X108.301 Y44.067 E.26865
G1 X113.131 Y46.301 E.26707
G1 X117.751 Y49.078 E.27052
G1 X122.01 Y52.315 E.26847
G1 X125.896 Y55.997 E.26866
G1 X129.362 Y60.078 E.26871
G1 X132.367 Y64.509 E.26869
G1 X134.874 Y69.239 E.26866
G1 X136.847 Y74.188 E.26738
G1 X138.288 Y79.371 E.26998
G1 X139.149 Y84.618 E.26685
G1 X139.442 Y90.042 E.2726
G1 X139.405 Y90.728 E.03448
G1 X139.154 Y95.346 E.2321
G1 X138.288 Y100.629 E.26867
G1 X136.856 Y105.788 E.2687
G1 X134.874 Y110.761 E.26867
G1 X132.367 Y115.491 E.26866
G1 X129.362 Y119.922 E.26869
G1 X125.896 Y124.003 E.26871
G1 X122.039 Y127.657 E.26664
G1 X117.715 Y130.944 E.27259
G1 X113.16 Y133.685 E.26679
G1 X108.275 Y135.942 E.27006
G1 X103.228 Y137.642 E.26727
G1 X97.999 Y138.793 E.2687
G1 X92.988 Y139.338 E.25296
G1 X92.965 Y139.687 F7800
;TYPE:External perimeter
G1 F600
G1 X92.696 Y139.717 E.01358
G1 X87.304 Y139.717 E.2706
G1 X81.945 Y139.134 E.27053
G1 X76.68 Y137.975 E.27055
G1 X71.571 Y136.253 E.27057
G1 X66.689 Y133.995 E.26994
G1 X62.039 Y131.196 E.27238
G1 X57.767 Y127.948 E.26932
G1 X53.853 Y124.24 E.27058
G1 X50.363 Y120.131 E.27056
G1 X47.337 Y115.669 E.27057
G1 X44.812 Y110.906 E.27055
G1 X42.819 Y105.903 E.27027
G1 X41.374 Y100.703 E.27086
G1 X40.504 Y95.399 E.26974
G1 X40.211 Y89.979 E.2724
G1 X40.502 Y84.617 E.26949
G1 X41.374 Y79.297 E.27055
G1 X42.817 Y74.102 E.27059
G1 X44.812 Y69.094 E.27054
G1 X47.337 Y64.331 E.27055
G1 X50.363 Y59.869 E.27057
G1 X53.853 Y55.76 E.27056
G1 X57.752 Y52.065 E.26958
G1 X62.073 Y48.78 E.2724
G1 X66.678 Y46.01 E.26969
G1 X71.578 Y43.744 E.27093
G1 X76.68 Y42.025 E.27019
G1 X81.945 Y40.866 E.27055
G1 X87.304 Y40.283 E.27053
G1 X92.696 Y40.283 E.2706
G1 X98.055 Y40.866 E.27053
G1 X103.32 Y42.025 E.27055
G1 X108.429 Y43.747 E.27057
G1 X113.292 Y45.996 E.26889
G1 X117.944 Y48.792 E.27239
G1 X122.233 Y52.052 E.27037
G1 X126.147 Y55.76 E.27058
G1 X129.637 Y59.869 E.27056
G1 X132.663 Y64.331 E.27057
G1 X135.188 Y69.094 E.27055
G1 X137.174 Y74.077 E.26921
G1 X138.626 Y79.297 E.27192
G1 X139.492 Y84.581 E.26872
G1 X139.788 Y90.042 E.27447
G1 X139.749 Y90.747 E.03544
G1 X139.498 Y95.383 E.233
G1 X138.626 Y100.703 E.27055
G1 X137.183 Y105.898 E.27059
G1 X135.188 Y110.906 E.27054
G1 X132.663 Y115.669 E.27055
G1 X129.637 Y120.131 E.27057
G1 X126.147 Y124.24 E.27056
G1 X122.263 Y127.92 E.26852
G1 X117.909 Y131.23 E.27448
G1 X113.322 Y133.99 E.26866
G1 X108.403 Y136.263 E.27195
G1 X103.32 Y137.975 E.26918
G1 X98.055 Y139.134 E.27055
G1 X93.025 Y139.681 E.25392
G1 X92.626 Y139.712 F7800
G1 E-3.2 F2400
G1 X88.689 Y114.36 F7800
G1 E3.2 F2400
;TYPE:Perimeter
G1 F600
G1 X88.632 Y114.36 E.00286
G1 X86.099 Y114.085 E.12787
G1 X83.518 Y113.522 E.13258
G1 X81.013 Y112.683 E.13258
G1 X78.613 Y111.578 E.1326
G1 X76.269 Y110.168 E.13728
G1 X74.24 Y108.626 E.1279
G1 X72.319 Y106.813 E.13256
G1 X70.605 Y104.803 E.13257
G1 X69.118 Y102.619 E.1326
G1 X67.876 Y100.287 E.1326
G1 X66.894 Y97.835 E.13256
G1 X66.182 Y95.291 E.13258
G1 X65.75 Y92.684 E.13262
G1 X65.601 Y90.047 E.13255
G1 X65.739 Y87.408 E.13262
G1 X66.182 Y84.709 E.13726
G1 X66.894 Y82.165 E.13258
G1 X67.876 Y79.713 E.13256
G1 X69.07 Y77.461 E.12792
G1 X70.548 Y75.272 E.13255
G1 X72.255 Y73.255 E.13261
G1 X74.169 Y71.435 E.13255
G1 X76.346 Y69.779 E.13727
G1 X78.53 Y68.465 E.12791
G1 X80.926 Y67.352 E.13259
G1 X83.428 Y66.503 E.1326
G1 X86.007 Y65.93 E.13259
G1 X88.632 Y65.64 E.13254
G1 X91.274 Y65.635 E.13259
G1 X93.993 Y65.93 E.13726
G1 X96.572 Y66.503 E.13259
G1 X99.074 Y67.352 E.1326
G1 X101.47 Y68.465 E.13259
G1 X103.724 Y69.827 E.13217
G1 X105.76 Y71.374 E.12833
G1 X107.681 Y73.187 E.13256
G1 X109.395 Y75.197 E.13257
G1 X110.882 Y77.381 E.1326
G1 X112.124 Y79.713 E.1326
G1 X113.106 Y82.165 E.13256
G1 X113.818 Y84.709 E.13258
G1 X114.25 Y87.316 E.13262
G1 X114.399 Y89.953 E.13255
G1 X114.261 Y92.592 E.13262
G1 X113.818 Y95.291 E.13726
G1 X113.136 Y97.746 E.12787
G1 X112.163 Y100.202 E.13258
G1 X110.93 Y102.539 E.13261
G1 X109.452 Y104.728 E.13255
G1 X107.745 Y106.745 E.13261
G1 X105.831 Y108.565 E.13255
G1 X103.654 Y110.221 E.13727
G1 X101.387 Y111.578 E.1326
G1 X98.987 Y112.683 E.1326
G1 X96.482 Y113.522 E.13258
G1 X93.901 Y114.085 E.13258
G1 X91.274 Y114.365 E.13259
G1 X88.749 Y114.36 E.12672
G1 X88.707 Y114.017 F7800
G1 F600
G1 X88.67 Y114.017 E.00186
G1 X86.136 Y113.742 E.12792
G1 X83.592 Y113.185 E.1307
G1 X81.123 Y112.356 E.13071
G1 X78.758 Y111.265 E.13071
G1 X76.478 Y109.894 E.13352
G1 X74.406 Y108.315 E.13074
G1 X72.518 Y106.522 E.13067
G1 X70.868 Y104.579 E.12793
G1 X69.403 Y102.425 E.13073
G1 X68.181 Y100.126 E.13066
G1 X67.214 Y97.707 E.13074
