; generated by PrusaSlicer 2.7.1+MacOS-arm64 on 2024-11-04 at 20:24:30 UTC


;
;
; 

; external perimeters extrusion width = 0.45mm
; perimeters extrusion width = 0.45mm
; infill extrusion width = 0.45mm
; solid infill extrusion width = 0.45mm
; top infill extrusion width = 0.40mm
; first layer extrusion width = 0.42mm

M104 S200 ; set temperature
;TYPE:Custom
;Stats

;printbedMaxX = 180
;printbedMaxY = 180 
;firstLayerXDim = 14.3998
;firstLayerYDim = 3.79408
;firstLayerCenterX = 90
;firstLayerCenterY = 90

G90 ; use absolute coordinates
M83 ; extruder relative mode
G28 ; home all without mesh bed level  
;G29 ; mesh bed leveling 
G92 E0.0
;G1 Y-2.0 X179 F2400
;G1 Z3 F720
;M109 S200 ; wait for extruder temp

;;;;;;auto probe print area only;;;;;;
;set global.minProbeX = 82.8001
;set global.maxProbeX = 97.1999
;set global.minProbeY = 88.103
;set global.maxProbeY = 91.897

T0 ; select tool 1

M568 P0 R{heat.coldExtrudeTemperature+5} S200 A1 ; (set extruder to standby to soften any protruding filament before probing )
M106 P0 S0 ;Start with fan off
M116 P0; Wait for bed before doing mesh probe.
M561 ; clear any bed transform
;M98 P"0:/sys/mesh.g" A82.8001 B97.1999 C88.103 D91.897 N30 ; set N to your desired distance between points
G29
;G29 S1 ; load small mesh
G1 X10 Y2  F2400 ; Move to Center
G1 Z3 F720 ; Raise Nozzle 
M568 P0 R{heat.coldExtrudeTemperature+5} S200 A2 ; (set standby and active temperatures for active tool.  Standby is 5 degrees above cold extrude temp )
M116 P0; Wait for all temps to stabilise


; intro line
G1 X170 F1000
G1 Z0.2 F720
G1 X110 E8 F900
G1 X40 E10 F700
G92 E0

;M221 S95 ; set flow

;START PRINTING

M109 S200 ; set temperature and wait for it to be reached
G21 ; set units to millimeters
G90 ; use absolute coordinates
M83 ; use relative distances for extrusion
; Filament gcode
M107
;LAYER_CHANGE
;Z:0.35
;HEIGHT:0.35
G1 Z.35 F600
;LAYER_NUMBER = 0
;LAYER_Z = 0.35
G1 E-3.2 F2400
G1 X84.071 Y91.687 F1800
G1 Z.35 F600
G1 E3.2 F2400
;TYPE:External perimeter
;WIDTH:0.42
G1 F600
G1 X83.01 Y91.687 E.05325
G1 X83.01 Y89.15 E.12732
G1 X84.048 Y91.632 E.13502
G1 X83.652 Y91.69 F1800
G1 X83.466 Y91.208
;TYPE:Perimeter
;WIDTH:0.578361
G1 F600
G1 X83.403 Y91.208 E.00461
G1 X83.371 Y91.263 E.00466
G1 X83.403 Y91.317 E.0046
G1 X83.466 Y91.317 E.00461
G1 X83.497 Y91.263 E.00456
G1 E-3.2 F2400
G1 X85.254 Y89.004 F1800
G1 E3.2 F2400
;TYPE:External perimeter
;WIDTH:0.606001
G1 F600
G1 X85.498 Y88.406 E.04989
G1 X84.944 Y89.863 F1800
;WIDTH:0.495429
G1 F600
G1 X84.626 Y89.113 E.04982
;WIDTH:0.504749
G1 X85.016 Y89.118 E.02438
;WIDTH:0.548265
G1 X85.135 Y89.061 E.00908
;WIDTH:0.591781
G1 X85.254 Y89.004 E.00992
G1 X85.207 Y89.17 E.01297
;WIDTH:0.548265
G1 X85.161 Y89.336 E.01186
;WIDTH:0.504749
G1 X84.967 Y89.807 E.03185
G1 X84.768 Y89.46 F1800
G1 E-3.2 F2400
G1 X85.818 Y91.687 F1800
G1 E3.2 F2400
;WIDTH:0.42
G1 F600
G1 X86.877 Y89.151 E.13792
G1 X86.877 Y91.687 E.12727
G1 X85.878 Y91.687 E.05014
G1 X85.977 Y91.299 F1800
G1 X86.485 Y91.209
;TYPE:Perimeter
;WIDTH:0.577089
G1 F600
G1 X86.422 Y91.209 E.0046
G1 X86.391 Y91.264 E.00461
G1 X86.422 Y91.318 E.00455
G1 X86.485 Y91.318 E.0046
G1 X86.516 Y91.264 E.00455
G1 E-3.2 F2400
G1 X86.516 Y91.264 F1800
G1 X88.595 Y89.116
G1 E3.2 F2400
;TYPE:External perimeter
;WIDTH:0.415111
G1 F600
G1 X88.759 Y89.59 E.02481
;WIDTH:0.419227
G1 X88.828 Y89.686 E.00592
G1 X89.625 Y89.659 E.03993
;WIDTH:0.442675
G1 X89.774 Y89.691 E.00815
G1 X90.006 Y89.127 E.03262
G1 X89.774 Y89.691 F1800
G1 F600
G1 X89.762 Y89.841 E.00805
;WIDTH:0.415111
G1 X89.474 Y90.688 E.04426
;WIDTH:0.429677
G1 X89.351 Y90.826 E.00954
G1 X89.208 Y90.808 E.00744
;WIDTH:0.415111
G1 X89.116 Y90.682 E.00772
G1 X88.835 Y89.836 E.0441
;WIDTH:0.419227
G1 X88.828 Y89.686 E.00752
G1 E-3.2 F2400
G1 X88.828 Y89.686 F1800
G1 X91.651 Y91.024
G1 E3.2 F2400
;WIDTH:0.415111
G1 F600
G1 X91.652 Y90.496 E.02612
;WIDTH:0.446551
G1 X91.625 Y90.363 E.00734
G1 X91.261 Y90.374 E.01968
;WIDTH:0.415111
G1 X90.855 Y90.231 E.0213
G1 X90.658 Y89.976 E.01594
G1 X90.608 Y89.701 E.01383
G1 X90.673 Y89.4 E.01524
G1 X90.844 Y89.191 E.01336
G1 X91.235 Y89.067 E.02029
G1 X91.518 Y89.111 E.01417
G1 X91.655 Y89.189 E.0078
G1 X91.653 Y90.232 E.0516
;WIDTH:0.446551
G1 X91.625 Y90.363 E.00724
G1 X92.978 Y90.381 F1800
;WIDTH:0.415111
G1 F600
G1 X92.723 Y90.309 E.01311
G1 X92.521 Y90.153 E.01263
G1 X92.389 Y89.717 E.02254
G1 X92.511 Y89.302 E.0214
G1 X92.694 Y89.13 E.01243
G1 X93.002 Y89.065 E.01557
G1 X93.341 Y89.21 E.01824
;WIDTH:0.415589
G1 X93.484 Y89.462 E.01436
G1 X93.54 Y89.73 E.01356
;WIDTH:0.415111
G1 X93.428 Y90.128 E.02046
G1 X93.239 Y90.314 E.01312
G1 X93.036 Y90.366 E.01037
G1 X92.656 Y90.24 F1800
G1 X94.273 Y91.023
G1 F600
G1 X94.275 Y89.207 E.08985
G1 X94.281 Y89.145 E.00308
G1 X94.42 Y89.084 E.00751
G1 X94.665 Y89.071 E.01214
G1 X95.057 Y89.21 E.02058
G1 X95.268 Y89.476 E.0168
G1 X95.318 Y89.803 E.01637
G1 X95.176 Y90.191 E.02044
G1 X95.003 Y90.305 E.01025
G1 X94.68 Y90.373 E.01633
;WIDTH:0.440343
G1 X94.299 Y90.334 E.02035
G1 E-3.2 F2400
G1 X94.299 Y90.334 F1800
G1 X96.929 Y89.125
G1 E3.2 F2400
;WIDTH:0.415111
G1 F600
G1 X96.585 Y89.072 E.01722
G1 X96.188 Y89.203 E.02068
G1 X96.023 Y89.474 E.0157
G1 X95.977 Y89.717 E.01224
G1 X95.995 Y89.769 E.00272
G1 X96.895 Y89.777 E.04453
G1 X97.011 Y89.813 E.00601
G1 X96.986 Y90.051 E.01184
G1 X96.861 Y90.261 E.01209
G1 X96.541 Y90.391 E.01709
G1 X96.203 Y90.269 E.01778
G1 X96.113 Y90.18 E.00626
G1 X95.987 Y89.892 E.01555
G1 X95.995 Y89.769 E.0061
M106 S127.5
;LAYER_CHANGE
;Z:0.65
;HEIGHT:0.3
G1 Z.65 F600
;LAYER_NUMBER = 1
;LAYER_Z = 0.65
G1 E-3.2 F2400
G1 X95.995 Y89.769 F1800
G1 X85.841 Y91.672
G1 E3.2 F2400
;WIDTH:0.45
G1 F600
G1 X86.862 Y89.226 E.12748
G1 X86.862 Y91.672 E.11764
G1 X85.901 Y91.672 E.04622
G1 X85.999 Y91.284 F1800
G1 X86.508 Y91.264
;TYPE:Perimeter
;WIDTH:0.495629
G1 F600
G1 X86.481 Y91.31 E.00287
G1 X86.427 Y91.31 E.0029
G1 X86.4 Y91.264 E.00287
G1 X86.427 Y91.217 E.00292
G1 X86.481 Y91.217 E.0029
G1 E-3.2 F2400
G1 X86.481 Y91.217 F1800
G1 X84.049 Y91.672
G1 E3.2 F2400
;TYPE:External perimeter
;WIDTH:0.45
G1 F600
G1 X83.025 Y91.672 E.04925
G1 X83.025 Y89.224 E.11774
G1 X84.025 Y91.617 E.12474
G1 X83.63 Y91.675 F1800
G1 X83.488 Y91.263
;TYPE:Perimeter
;WIDTH:0.496899
G1 F600
G1 X83.461 Y91.31 E.00292
G1 X83.407 Y91.31 E.00291
G1 X83.38 Y91.263 E.00292
G1 X83.407 Y91.216 E.00292
G1 X83.461 Y91.216 E.00291
G1 E-3.2 F2400
G1 X83.461 Y91.216 F1800
G1 X85.255 Y89
G1 E3.2 F2400
;TYPE:External perimeter
;WIDTH:0.605999
G1 F600
G1 X85.498 Y88.406 E.04335
G1 X84.944 Y89.87 F1800
;WIDTH:0.490063
G1 F600
G1 X84.621 Y89.111 E.0438
;WIDTH:0.497986
G1 X85.012 Y89.115 E.02115
;WIDTH:0.544921
G1 X85.134 Y89.058 E.00807
;WIDTH:0.591857
G1 X85.255 Y89 E.00883
G1 X85.216 Y89.136 E.00931
;WIDTH:0.557925
G1 X85.178 Y89.271 E.00863
;WIDTH:0.523994
G1 X85.139 Y89.406 E.00806
;WIDTH:0.490063
G1 X84.967 Y89.815 E.02356
G1 X84.768 Y89.468 F1800
G1 E-3.2 F2400
G1 X90.005 Y89.128 F1800
G1 E3.2 F2400
;WIDTH:0.444117
G1 F600
G1 X89.771 Y89.692 E.02892
G1 X89.617 Y89.659 E.00746
;WIDTH:0.422109
G1 X88.83 Y89.687 E.03514
G1 X88.758 Y89.587 E.0055
;WIDTH:0.404381
G1 X88.596 Y89.117 E.02108
G1 X89.771 Y89.692 F1800
;WIDTH:0.444117
G1 F600
G1 X89.759 Y89.848 E.00741
;WIDTH:0.404381
G1 X89.474 Y90.683 E.03742
;WIDTH:0.429689
G1 X89.347 Y90.826 E.00871
G1 X89.209 Y90.809 E.00634
;WIDTH:0.404381
G1 X89.115 Y90.679 E.0068
G1 X88.837 Y89.843 E.03736
;WIDTH:0.422109
G1 X88.83 Y89.687 E.00697
G1 E-3.2 F2400
G1 X88.83 Y89.687 F1800
G1 X91.624 Y90.364
G1 E3.2 F2400
;WIDTH:0.449007
G1 F600
G1 X91.653 Y90.226 E.00676
;WIDTH:0.404381
G1 X91.654 Y89.189 E.04398
G1 X91.514 Y89.11 E.00682
G1 X91.253 Y89.07 E.0112
G1 X90.845 Y89.191 E.01805
G1 X90.674 Y89.4 E.01145
G1 X90.608 Y89.7 E.01303
G1 X90.658 Y89.975 E.01185
G1 X90.856 Y90.232 E.01376
G1 X91.26 Y90.374 E.01816
;WIDTH:0.449007
G1 X91.624 Y90.364 E.01747
G1 X91.652 Y90.502 E.00676
;WIDTH:0.404381
G1 X91.651 Y91.024 E.02214
G1 X92.98 Y90.381 F1800
G1 F600
G1 X92.723 Y90.309 E.01132
G1 X92.52 Y90.151 E.01091
G1 X92.389 Y89.717 E.01922
G1 X92.511 Y89.303 E.0183
G1 X92.693 Y89.131 E.01062
G1 X93.002 Y89.065 E.0134
G1 X93.34 Y89.209 E.01558
;WIDTH:0.415587
G1 X93.484 Y89.462 E.01275
G1 X93.54 Y89.73 E.01199
;WIDTH:0.404381
G1 X93.428 Y90.127 E.01749
G1 X93.24 Y90.313 E.01121
G1 X93.038 Y90.365 E.00885
G1 X92.658 Y90.24 F1800
G1 X94.273 Y91.019
G1 F600
G1 X94.275 Y89.212 E.07663
G1 X94.28 Y89.152 E.00255
G1 X94.425 Y89.086 E.00676
G1 X94.667 Y89.071 E.01028
G1 X95.056 Y89.21 E.01752
G1 X95.268 Y89.476 E.01442
G1 X95.317 Y89.805 E.01411
G1 X95.176 Y90.191 E.01743
G1 X95.003 Y90.305 E.00879
G1 X94.679 Y90.372 E.01403
;WIDTH:0.442915
G1 X94.3 Y90.335 E.01798
G1 E-3.2 F2400
G1 X94.3 Y90.335 F1800
G1 X96.93 Y89.127
G1 E3.2 F2400
;WIDTH:0.404381
G1 F600
G1 X96.599 Y89.071 E.01424
G1 X96.189 Y89.203 E.01827
;WIDTH:0.407071
G1 X96.023 Y89.474 E.01358
G1 X95.979 Y89.714 E.01043
;WIDTH:0.404381
G1 X95.998 Y89.769 E.00247
G1 X96.887 Y89.777 E.0377
G1 X97.009 Y89.814 E.00541
G1 X96.986 Y90.051 E.0101
G1 X96.859 Y90.262 E.01044
G1 X96.541 Y90.39 E.01454
G1 X96.204 Y90.27 E.01517
G1 X96.113 Y90.18 E.00543
G1 X95.989 Y89.898 E.01306
G1 X95.998 Y89.769 E.00548
M106 S255
;LAYER_CHANGE
;Z:0.95
;HEIGHT:0.3
G1 Z.95 F600
;LAYER_NUMBER = 2
;LAYER_Z = 0.95
G1 E-3.2 F2400
G1 X95.998 Y89.769 F1800
G1 X85.841 Y91.672
G1 E3.2 F2400
;WIDTH:0.45
G1 F600
G1 X86.862 Y89.226 E.12748
G1 X86.862 Y91.672 E.11764
G1 X85.901 Y91.672 E.04622
G1 X85.999 Y91.284 F1800
G1 X86.508 Y91.264
;TYPE:Perimeter
;WIDTH:0.495629
G1 F600
G1 X86.481 Y91.31 E.00287
G1 X86.427 Y91.31 E.0029
G1 X86.4 Y91.264 E.00287
G1 X86.427 Y91.217 E.00292
G1 X86.481 Y91.217 E.0029
G1 E-3.2 F2400
G1 X86.481 Y91.217 F1800
G1 X84.049 Y91.672
G1 E3.2 F2400
;TYPE:External perimeter
;WIDTH:0.45
G1 F600
G1 X83.025 Y91.672 E.04925
G1 X83.025 Y89.224 E.11774
G1 X84.025 Y91.617 E.12474
G1 X83.63 Y91.675 F1800
G1 X83.488 Y91.263
;TYPE:Perimeter
;WIDTH:0.496899
G1 F600
G1 X83.461 Y91.31 E.00292
G1 X83.407 Y91.31 E.00291
G1 X83.38 Y91.263 E.00292
G1 X83.407 Y91.216 E.00292
G1 X83.461 Y91.216 E.00291
G1 E-3.2 F2400
G1 X83.461 Y91.216 F1800
G1 X85.255 Y89
G1 E3.2 F2400
;TYPE:External perimeter
;WIDTH:0.606001
G1 F600
G1 X85.498 Y88.406 E.04335
G1 X84.944 Y89.87 F1800
;WIDTH:0.490064
G1 F600
G1 X84.621 Y89.111 E.0438
;WIDTH:0.497987
G1 X85.012 Y89.115 E.02115
;WIDTH:0.544924
G1 X85.134 Y89.058 E.00807
;WIDTH:0.591861
G1 X85.255 Y89 E.00883
G1 X85.216 Y89.136 E.00931
;WIDTH:0.557928
G1 X85.178 Y89.271 E.00863
;WIDTH:0.523996
G1 X85.139 Y89.406 E.00806
;WIDTH:0.490064
G1 X84.967 Y89.815 E.02356
G1 X84.768 Y89.468 F1800
G1 E-3.2 F2400
G1 X90.005 Y89.128 F1800
G1 E3.2 F2400
;WIDTH:0.444119
G1 F600
G1 X89.771 Y89.692 E.02892
G1 X89.617 Y89.659 E.00746
;WIDTH:0.422111
G1 X88.83 Y89.687 E.03514
G1 X88.758 Y89.587 E.0055
;WIDTH:0.404381
G1 X88.596 Y89.117 E.02108
G1 X89.771 Y89.692 F1800
;WIDTH:0.444119
G1 F600
G1 X89.759 Y89.848 E.00741
;WIDTH:0.404381
G1 X89.474 Y90.683 E.03742
;WIDTH:0.429691
G1 X89.347 Y90.826 E.00871
G1 X89.209 Y90.809 E.00634
;WIDTH:0.404381
G1 X89.115 Y90.679 E.0068
G1 X88.837 Y89.843 E.03736
;WIDTH:0.422111
G1 X88.83 Y89.687 E.00697
G1 E-3.2 F2400
G1 X88.83 Y89.687 F1800
G1 X91.624 Y90.364
G1 E3.2 F2400
;WIDTH:0.449007
G1 F600
G1 X91.653 Y90.227 E.00672
;WIDTH:0.404381
G1 X91.654 Y89.189 E.04402
G1 X91.514 Y89.109 E.00684
G1 X91.225 Y89.069 E.01237
G1 X90.845 Y89.191 E.01692
G1 X90.674 Y89.4 E.01145
G1 X90.608 Y89.7 E.01303
G1 X90.658 Y89.975 E.01185
G1 X90.856 Y90.232 E.01376
G1 X91.26 Y90.374 E.01816
;WIDTH:0.449007
G1 X91.624 Y90.364 E.01747
G1 X91.652 Y90.502 E.00676
;WIDTH:0.404381
G1 X91.651 Y91.024 E.02214
G1 X92.98 Y90.381 F1800
G1 F600
G1 X92.723 Y90.309 E.01132
G1 X92.52 Y90.151 E.01091
G1 X92.389 Y89.717 E.01922
G1 X92.511 Y89.303 E.0183
G1 X92.693 Y89.131 E.01062
G1 X92.991 Y89.063 E.01296
G1 X93.34 Y89.209 E.01604
;WIDTH:0.415589
G1 X93.484 Y89.462 E.01275
G1 X93.54 Y89.73 E.01199
;WIDTH:0.404381
G1 X93.428 Y90.127 E.01749
G1 X93.24 Y90.313 E.01121
G1 X93.038 Y90.365 E.00885
G1 X92.658 Y90.24 F1800
G1 X94.273 Y91.019
G1 F600
G1 X94.275 Y89.212 E.07663
G1 X94.28 Y89.153 E.00251
G1 X94.425 Y89.087 E.00676
G1 X94.653 Y89.071 E.00969
G1 X95.056 Y89.209 E.01806
G1 X95.268 Y89.476 E.01446
G1 X95.317 Y89.805 E.01411
G1 X95.176 Y90.191 E.01743
G1 X95.003 Y90.305 E.00879
G1 X94.679 Y90.372 E.01403
;WIDTH:0.442915
G1 X94.3 Y90.335 E.01798
G1 E-3.2 F2400
G1 X94.3 Y90.335 F1800
G1 X96.93 Y89.127
G1 E3.2 F2400
;WIDTH:0.404381
G1 F600
G1 X96.577 Y89.073 E.01514
G1 X96.189 Y89.203 E.01735
;WIDTH:0.407073
G1 X96.023 Y89.474 E.01358
G1 X95.979 Y89.714 E.01043
;WIDTH:0.404381
G1 X95.998 Y89.769 E.00247
G1 X96.887 Y89.777 E.0377
G1 X97.009 Y89.814 E.00541
G1 X96.986 Y90.051 E.0101
G1 X96.859 Y90.262 E.01044
G1 X96.541 Y90.39 E.01454
G1 X96.204 Y90.27 E.01517
G1 X96.113 Y90.18 E.00543
G1 X95.989 Y89.898 E.01306
G1 X95.998 Y89.769 E.00548
;LAYER_CHANGE
;Z:1.25
;HEIGHT:0.3
G1 Z1.25 F600
;LAYER_NUMBER = 3
;LAYER_Z = 1.25
G1 E-3.2 F2400
G1 X95.998 Y89.769 F1800
G1 X85.841 Y91.672
G1 E3.2 F2400
;WIDTH:0.45
G1 F600
G1 X86.862 Y89.226 E.12748
G1 X86.862 Y91.672 E.11764
G1 X85.901 Y91.672 E.04622
G1 X85.999 Y91.284 F1800
G1 X86.508 Y91.264
;TYPE:Perimeter
;WIDTH:0.495629
G1 F600
G1 X86.481 Y91.31 E.00287
G1 X86.427 Y91.31 E.0029
G1 X86.4 Y91.264 E.00287
G1 X86.427 Y91.217 E.00292
G1 X86.481 Y91.217 E.0029
G1 E-3.2 F2400
G1 X86.481 Y91.217 F1800
G1 X84.049 Y91.672
G1 E3.2 F2400
;TYPE:External perimeter
;WIDTH:0.45
G1 F600
G1 X83.025 Y91.672 E.04925
G1 X83.025 Y89.224 E.11774
G1 X84.025 Y91.617 E.12474
G1 X83.63 Y91.675 F1800
G1 X83.488 Y91.263
;TYPE:Perimeter
;WIDTH:0.496899
G1 F600
G1 X83.461 Y91.31 E.00292
G1 X83.407 Y91.31 E.00291
G1 X83.38 Y91.263 E.00292
G1 X83.407 Y91.216 E.00292
G1 X83.461 Y91.216 E.00291
G1 E-3.2 F2400
G1 X83.461 Y91.216 F1800
G1 X85.255 Y89
G1 E3.2 F2400
;TYPE:External perimeter
;WIDTH:0.606001
G1 F600
G1 X85.498 Y88.406 E.04335
G1 X84.944 Y89.87 F1800
;WIDTH:0.490064
G1 F600
G1 X84.621 Y89.111 E.0438
;WIDTH:0.497987
G1 X85.012 Y89.115 E.02115
;WIDTH:0.544923
G1 X85.134 Y89.058 E.00807
;WIDTH:0.591859
G1 X85.255 Y89 E.00883
G1 X85.216 Y89.136 E.00931
;WIDTH:0.557927
G1 X85.178 Y89.271 E.00863
;WIDTH:0.523995
G1 X85.139 Y89.406 E.00806
;WIDTH:0.490064
G1 X84.967 Y89.815 E.02356
G1 X84.768 Y89.468 F1800
G1 E-3.2 F2400
G1 X90.005 Y89.128 F1800
G1 E3.2 F2400
;WIDTH:0.444117
G1 F600
G1 X89.771 Y89.692 E.02892
G1 X89.617 Y89.659 E.00746
;WIDTH:0.422111
G1 X88.83 Y89.687 E.03514
G1 X88.758 Y89.587 E.0055
;WIDTH:0.404381
G1 X88.596 Y89.117 E.02108
G1 X89.771 Y89.692 F1800
;WIDTH:0.444117
G1 F600
G1 X89.759 Y89.848 E.00741
;WIDTH:0.404381
G1 X89.474 Y90.683 E.03742
;WIDTH:0.429689
G1 X89.347 Y90.826 E.00871
G1 X89.209 Y90.809 E.00634
;WIDTH:0.404381
G1 X89.115 Y90.679 E.0068
G1 X88.837 Y89.843 E.03736
;WIDTH:0.422111
G1 X88.83 Y89.687 E.00697
G1 E-3.2 F2400
G1 X88.83 Y89.687 F1800
G1 X91.624 Y90.364
G1 E3.2 F2400
;WIDTH:0.449007
G1 F600
G1 X91.653 Y90.226 E.00676
;WIDTH:0.404381
G1 X91.654 Y89.189 E.04398
G1 X91.514 Y89.11 E.00682
G1 X91.225 Y89.067 E.01239
G1 X90.845 Y89.191 E.01695
G1 X90.674 Y89.4 E.01145
G1 X90.608 Y89.7 E.01303
G1 X90.658 Y89.975 E.01185
G1 X90.856 Y90.232 E.01376
G1 X91.26 Y90.374 E.01816
;WIDTH:0.449007
G1 X91.624 Y90.364 E.01747
G1 X91.652 Y90.502 E.00676
;WIDTH:0.404381
G1 X91.651 Y91.024 E.02214
G1 X92.98 Y90.381 F1800
G1 F600
G1 X92.723 Y90.309 E.01132
G1 X92.52 Y90.151 E.01091
G1 X92.389 Y89.717 E.01922
G1 X92.511 Y89.303 E.0183
G1 X92.692 Y89.132 E.01056
G1 X92.999 Y89.069 E.01329
G1 X93.34 Y89.208 E.01562
;WIDTH:0.415591
G1 X93.484 Y89.462 E.01279
G1 X93.54 Y89.73 E.01199
;WIDTH:0.404381
G1 X93.428 Y90.127 E.01749
G1 X93.24 Y90.313 E.01121
G1 X93.038 Y90.365 E.00885
G1 X92.658 Y90.24 F1800
G1 X94.273 Y91.019
G1 F600
G1 X94.275 Y89.212 E.07663
G1 X94.28 Y89.154 E.00247
G1 X94.425 Y89.088 E.00676
G1 X94.648 Y89.07 E.00949
G1 X95.056 Y89.209 E.01828
G1 X95.268 Y89.476 E.01446
G1 X95.317 Y89.805 E.01411
G1 X95.176 Y90.191 E.01743
G1 X95.003 Y90.305 E.00879
G1 X94.679 Y90.372 E.01403
