; generated by PrusaSlicer 2.7.1+MacOS-arm64 on 2024-06-10 at 19:15:35 UTC


;
;
; 

; external perimeters extrusion width = 0.45mm
; perimeters extrusion width = 0.45mm
; infill extrusion width = 0.45mm
; solid infill extrusion width = 0.45mm
; top infill extrusion width = 0.40mm
; first layer extrusion width = 0.42mm

M104 S200 ; set temperature
;TYPE:Custom
;Stats

;printbedMaxX = 180
;printbedMaxY = 180 
;firstLayerXDim = 57.0243
;firstLayerYDim = 56.9613
;firstLayerCenterX = 90
;firstLayerCenterY = 90

G90 ; use absolute coordinates
M83 ; extruder relative mode
G28 ; home all without mesh bed level  
;G29 ; mesh bed leveling 
G92 E0.0
;G1 Y-2.0 X179 F2400
;G1 Z3 F720
;M109 S200 ; wait for extruder temp

;;;;;;auto probe print area only;;;;;;
;set global.minProbeX = 61.4878
;set global.maxProbeX = 118.512
;set global.minProbeY = 61.5193
;set global.maxProbeY = 118.481

T0 ; select tool 1

M568 P0 R{heat.coldExtrudeTemperature+5} S200 A1 ; (set extruder to standby to soften any protruding filament before probing )
M106 P0 S0 ;Start with fan off
M116 P0; Wait for bed before doing mesh probe.
M561 ; clear any bed transform
;M98 P"0:/sys/mesh.g" A61.4878 B118.512 C61.5193 D118.481 N30 ; set N to your desired distance between points
G29
;G29 S1 ; load small mesh
G1 X10 Y2  F2400 ; Move to Center
G1 Z3 F720 ; Raise Nozzle 
M568 P0 R{heat.coldExtrudeTemperature+5} S200 A2 ; (set standby and active temperatures for active tool.  Standby is 5 degrees above cold extrude temp )
M116 P0; Wait for all temps to stabilise


; intro line
G1 X170 F1000
G1 Z0.2 F720
G1 X110 E8 F900
G1 X40 E10 F700
G92 E0

;M221 S95 ; set flow

;START PRINTING

M109 S200 ; set temperature and wait for it to be reached
G21 ; set units to millimeters
G90 ; use absolute coordinates
M83 ; use relative distances for extrusion
; Filament gcode
M107
;LAYER_CHANGE
;Z:0.35
;HEIGHT:0.35
G1 Z.35 F600
;LAYER_NUMBER = 0
;LAYER_Z = 0.35
G1 E-3.2 F2400
G1 X69.301 Y70.642 F3600
G1 Z.35 F600
G1 E3.2 F2400
;TYPE:Skirt/Brim
;WIDTH:0.42
G1 F900
G1 X71.515 Y68.518 E.15397
G1 X74.246 Y66.442 E.17216
G1 X76.885 Y64.876 E.154
G1 X79.679 Y63.606 E.15403
G1 X82.593 Y62.645 E.15399
G1 X85.594 Y62.004 E.15401
G1 X88.647 Y61.692 E.15402
G1 X91.715 Y61.711 E.15397
G1 X94.406 Y62.004 E.13585
G1 X97.407 Y62.645 E.15401
G1 X100.321 Y63.606 E.15399
G1 X103.115 Y64.876 E.15403
G1 X105.754 Y66.442 E.154
G1 X108.02 Y68.14 E.14211
G1 X110.699 Y70.642 E.18396
G1 X112.671 Y72.994 E.15404
G1 X114.377 Y75.544 E.15397
G1 X115.797 Y78.265 E.15403
G1 X116.914 Y81.123 E.154
G1 X117.713 Y84.065 E.153
G1 X118.177 Y86.916 E.14496
G1 X118.34 Y89.819 E.14592
G1 X118.193 Y92.884 E.154
G1 X117.713 Y95.935 E.155
G1 X116.978 Y98.649 E.14111
G1 X115.645 Y102.064 E.18398
G1 X114.19 Y104.766 E.15401
G1 X112.452 Y107.295 E.154
G1 X110.45 Y109.621 E.15402
G1 X108.485 Y111.482 E.13582
G1 X105.754 Y113.558 E.17216
G1 X103.115 Y115.124 E.154
G1 X100.321 Y116.394 E.15403
G1 X97.407 Y117.355 E.15399
G1 X94.406 Y117.996 E.15401
G1 X91.353 Y118.308 E.15402
G1 X88.285 Y118.289 E.15397
G1 X85.236 Y117.937 E.15403
G1 X82.244 Y117.259 E.15396
G1 X79.679 Y116.394 E.13585
G1 X76.885 Y115.124 E.15403
G1 X73.946 Y113.355 E.17215
G1 X71.515 Y111.482 E.15401
G1 X69.301 Y109.358 E.15397
G1 X67.329 Y107.006 E.15404
G1 X65.81 Y104.766 E.13583
G1 X64.355 Y102.064 E.15401
G1 X63.201 Y99.221 E.15398
G1 X62.362 Y96.269 E.15402
G1 X61.826 Y93.11 E.1608
G1 X61.66 Y90.181 E.14723
G1 X61.807 Y87.116 E.154
G1 X62.287 Y84.065 E.155
G1 X63.022 Y81.351 E.14111
G1 X64.355 Y77.936 E.18398
G1 X65.623 Y75.544 E.13587
G1 X67.329 Y72.994 E.15397
G1 X69.262 Y70.688 E.15101
G1 E-3.2 F2400
G1 X69.262 Y70.688 F3600
G1 X91.305 Y114.064
G1 E3.2 F2400
;TYPE:Perimeter
;WIDTH:0.42
G1 F900
G1 X88.695 Y114.064 E.13099
G1 X86.101 Y113.781 E.13095
G1 X83.553 Y113.22 E.13094
G1 X81.08 Y112.387 E.13096
G1 X78.712 Y111.292 E.13093
G1 X76.476 Y109.946 E.13098
G1 X74.399 Y108.367 E.13094
G1 X72.504 Y106.573 E.13096
G1 X70.815 Y104.584 E.13095
G1 X69.351 Y102.424 E.13095
G1 X68.128 Y100.119 E.13095
G1 X67.163 Y97.695 E.13094
G1 X66.465 Y95.181 E.13094
G1 X66.042 Y92.606 E.13096
G1 X65.901 Y90 E.13098
G1 X66.045 Y87.369 E.13224
G1 X66.464 Y84.82 E.12964
G1 X67.163 Y82.305 E.131
G1 X68.128 Y79.881 E.13094
G1 X69.351 Y77.576 E.13095
G1 X70.815 Y75.416 E.13095
G1 X72.504 Y73.427 E.13095
G1 X74.399 Y71.633 E.13096
G1 X76.476 Y70.054 E.13094
G1 X78.712 Y68.708 E.13098
G1 X81.08 Y67.613 E.13093
G1 X83.553 Y66.78 E.13096
G1 X86.101 Y66.219 E.13094
G1 X88.695 Y65.936 E.13095
G1 X91.305 Y65.936 E.13099
G1 X93.899 Y66.219 E.13095
G1 X96.447 Y66.78 E.13094
G1 X98.92 Y67.613 E.13096
G1 X101.288 Y68.708 E.13093
G1 X103.524 Y70.054 E.13098
G1 X105.601 Y71.633 E.13094
G1 X107.496 Y73.427 E.13096
G1 X109.185 Y75.416 E.13095
G1 X110.649 Y77.576 E.13095
G1 X111.872 Y79.881 E.13095
G1 X112.837 Y82.305 E.13094
G1 X113.535 Y84.819 E.13094
G1 X113.958 Y87.394 E.13096
G1 X114.028 Y88.694 E.06534
G1 X114.099 Y90 E.06564
G1 X113.955 Y92.631 E.13224
G1 X113.536 Y95.18 E.12964
G1 X112.837 Y97.695 E.131
G1 X111.872 Y100.119 E.13094
G1 X110.649 Y102.424 E.13095
G1 X109.185 Y104.584 E.13095
G1 X107.496 Y106.573 E.13095
G1 X105.601 Y108.367 E.13096
G1 X103.524 Y109.946 E.13094
G1 X101.288 Y111.292 E.13098
G1 X98.92 Y112.387 E.13093
G1 X96.447 Y113.22 E.13096
G1 X93.899 Y113.781 E.13094
G1 X91.364 Y114.057 E.12797
G1 X91.323 Y114.408 F3600
G1 F900
G1 X88.677 Y114.408 E.13279
G1 X86.045 Y114.122 E.13287
G1 X83.46 Y113.553 E.13284
G1 X80.952 Y112.708 E.13282
G1 X78.55 Y111.597 E.13282
G1 X76.282 Y110.232 E.13285
G1 X74.175 Y108.631 E.1328
G1 X72.254 Y106.81 E.13284
G1 X70.54 Y104.793 E.13284
G1 X69.055 Y102.602 E.13283
G1 X67.815 Y100.264 E.13282
G1 X66.835 Y97.805 E.13285
G1 X66.127 Y95.255 E.13281
G1 X65.699 Y92.643 E.13283
G1 X65.556 Y90 E.13284
G1 X65.702 Y87.331 E.13415
G1 X66.127 Y84.745 E.13152
G1 X66.835 Y82.195 E.13281
G1 X67.815 Y79.736 E.13285
G1 X69.055 Y77.398 E.13282
G1 X70.54 Y75.207 E.13283
G1 X72.254 Y73.19 E.13284
G1 X74.175 Y71.369 E.13284
G1 X76.282 Y69.768 E.1328
G1 X78.55 Y68.403 E.13285
G1 X80.952 Y67.292 E.13282
G1 X83.46 Y66.447 E.13282
G1 X86.045 Y65.878 E.13284
G1 X88.677 Y65.592 E.13287
G1 X91.323 Y65.592 E.13279
G1 X93.955 Y65.878 E.13287
G1 X96.54 Y66.447 E.13284
G1 X99.048 Y67.292 E.13282
G1 X101.45 Y68.403 E.13282
G1 X103.718 Y69.768 E.13285
G1 X105.825 Y71.369 E.1328
G1 X107.746 Y73.19 E.13284
G1 X109.46 Y75.207 E.13284
G1 X110.945 Y77.398 E.13283
G1 X112.185 Y79.736 E.13282
G1 X113.165 Y82.195 E.13285
G1 X113.873 Y84.745 E.13281
G1 X114.301 Y87.357 E.13283
G1 X114.372 Y88.675 E.06624
G1 X114.444 Y90 E.06659
G1 X114.298 Y92.669 E.13415
G1 X113.873 Y95.255 E.13152
G1 X113.165 Y97.805 E.13281
G1 X112.185 Y100.264 E.13285
G1 X110.945 Y102.602 E.13282
G1 X109.46 Y104.793 E.13283
G1 X107.746 Y106.81 E.13284
G1 X105.825 Y108.631 E.13284
G1 X103.718 Y110.232 E.1328
G1 X101.45 Y111.597 E.13285
G1 X99.048 Y112.708 E.13282
G1 X96.54 Y113.553 E.13282
G1 X93.955 Y114.122 E.13284
G1 X91.383 Y114.402 E.12984
G1 X91.342 Y114.753 F3600
;TYPE:External perimeter
G1 F900
G1 X88.658 Y114.753 E.1347
G1 X85.989 Y114.463 E.13473
G1 X83.368 Y113.886 E.13469
G1 X80.824 Y113.029 E.13472
G1 X78.388 Y111.902 E.1347
G1 X76.088 Y110.518 E.13471
G1 X73.952 Y108.894 E.13466
G1 X72.003 Y107.048 E.13472
G1 X70.265 Y105.002 E.13473
G1 X68.759 Y102.78 E.13471
G1 X67.501 Y100.409 E.1347
G1 X66.508 Y97.915 E.13472
G1 X65.79 Y95.329 E.13469
G1 X65.356 Y92.68 E.13471
G1 X65.21 Y90 E.1347
G1 X65.359 Y87.294 E.13601
G1 X65.79 Y84.671 E.1334
G1 X66.508 Y82.085 E.13469
G1 X67.501 Y79.591 E.13472
G1 X68.759 Y77.22 E.1347
G1 X70.265 Y74.998 E.13471
G1 X72.003 Y72.952 E.13473
G1 X73.952 Y71.106 E.13472
G1 X76.088 Y69.482 E.13466
G1 X78.388 Y68.098 E.13471
G1 X80.824 Y66.971 E.1347
G1 X83.368 Y66.114 E.13472
G1 X85.989 Y65.537 E.13469
G1 X88.658 Y65.247 E.13473
G1 X91.342 Y65.247 E.1347
G1 X94.011 Y65.537 E.13473
G1 X96.632 Y66.114 E.13469
G1 X99.176 Y66.971 E.13472
G1 X101.612 Y68.098 E.1347
G1 X103.912 Y69.482 E.13471
G1 X106.049 Y71.106 E.1347
G1 X107.997 Y72.952 E.13469
G1 X109.735 Y74.998 E.13473
G1 X111.241 Y77.22 E.13471
G1 X112.499 Y79.591 E.1347
G1 X113.492 Y82.085 E.13472
G1 X114.21 Y84.671 E.13469
G1 X114.644 Y87.32 E.13471
G1 X114.717 Y88.656 E.06715
G1 X114.79 Y90 E.06755
G1 X114.641 Y92.706 E.13601
G1 X114.21 Y95.329 E.1334
G1 X113.492 Y97.915 E.13469
G1 X112.499 Y100.409 E.13472
G1 X111.241 Y102.78 E.1347
G1 X109.735 Y105.002 E.13471
G1 X107.997 Y107.048 E.13473
G1 X106.049 Y108.894 E.13469
G1 X103.912 Y110.518 E.1347
G1 X101.612 Y111.902 E.13471
G1 X99.176 Y113.029 E.1347
G1 X96.632 Y113.886 E.13472
G1 X94.011 Y114.463 E.13469
G1 X91.402 Y114.747 E.13171
G1 X91.002 Y114.752 F3600
G1 E-3.2 F2400
G1 X105.032 Y71.33 F3600
G1 E3.2 F2400
;TYPE:Solid infill
;WIDTH:0.420488
G1 F900
G1 X107.308 Y73.606 E.16176
G1 X108.979 Y75.573 E.12971
G1 X109.384 Y76.17 E.03626
G1 X103.808 Y70.595 E.39627
G1 X103.379 Y70.268 E.02711
G1 X102.411 Y69.686 E.05676
G1 X110.412 Y77.687 E.56866
G1 X110.97 Y78.734 E.05963
G1 X101.185 Y68.948 E.69549
G1 X100.271 Y68.523 E.05066
G1 X111.522 Y79.773 E.79962
G1 X111.636 Y79.99 E.01232
G1 X111.893 Y80.633 E.0348
G1 X99.362 Y68.102 E.89063
G1 X98.824 Y67.853 E.02979
G1 X98.524 Y67.752 E.01591
G1 X112.216 Y81.445 E.97318
G1 X112.54 Y82.256 E.04389
G1 X97.787 Y67.504 E1.04852
G1 X97.05 Y67.256 E.03908
G1 X112.749 Y82.955 E1.11579
G1 X112.937 Y83.631 E.03526
G1 X96.323 Y67.017 E1.18082
G1 X95.697 Y66.879 E.03222
G1 X113.125 Y84.307 E1.23868
G1 X113.298 Y84.968 E.03434
G1 X95.071 Y66.741 E1.29546
G1 X94.444 Y66.604 E.03225
G1 X113.394 Y85.553 E1.34682
G1 X113.489 Y86.137 E.02974
G1 X93.823 Y66.471 E1.39774
G1 X93.275 Y66.411 E.02771
G1 X113.585 Y86.721 E1.44351
G1 X113.681 Y87.305 E.02974
G1 X92.727 Y66.351 E1.48928
G1 X92.179 Y66.292 E.0277
G1 X113.722 Y87.835 E1.53115
G1 X113.75 Y88.352 E.02602
G1 X91.631 Y66.232 E1.57212
G1 X91.291 Y66.195 E.01719
G1 X91.105 Y66.195 E.00935
G1 X113.778 Y88.868 E1.61146
G1 X113.806 Y89.385 E.02602
G1 X90.617 Y66.195 E1.64817
G1 X90.129 Y66.195 E.02453
G1 X113.834 Y89.901 E1.68484
G1 X113.819 Y90.374 E.02378
G1 X89.64 Y66.195 E1.7185
G1 X89.152 Y66.195 E.02453
G1 X113.794 Y90.837 E1.7514
G1 X113.769 Y91.3 E.0233
G1 X88.668 Y66.2 E1.78399
G1 X88.227 Y66.248 E.02229
G1 X113.743 Y91.764 E1.81352
G1 X113.718 Y92.227 E.0233
G1 X87.787 Y66.295 E1.84305
G1 X87.346 Y66.343 E.02229
G1 X113.684 Y92.681 E1.87195
G1 X113.615 Y93.101 E.02139
G1 X86.906 Y66.391 E1.89835
G1 X86.465 Y66.439 E.02229
G1 X113.546 Y93.52 E1.92475
G1 X113.477 Y93.94 E.02139
G1 X86.035 Y66.498 E1.95041
G1 X85.635 Y66.586 E.02058
G1 X113.408 Y94.359 E1.97394
G1 X113.339 Y94.779 E.02139
G1 X85.235 Y66.674 E1.9975
G1 X84.834 Y66.762 E.02063
G1 X113.264 Y95.192 E2.02063
G1 X113.158 Y95.574 E.01992
G1 X84.434 Y66.85 E2.04153
G1 X84.034 Y66.939 E.02059
G1 X113.052 Y95.956 E2.06239
G1 X112.945 Y96.339 E.01999
G1 X83.633 Y67.027 E2.08332
G1 X83.267 Y67.149 E.01939
G1 X112.839 Y96.721 E2.1018
G1 X112.733 Y97.103 E.01992
G1 X82.902 Y67.272 E2.12021
G1 X82.536 Y67.395 E.0194
G1 X112.627 Y97.486 E2.13869
G1 X112.499 Y97.846 E.0192
G1 X82.171 Y67.518 E2.15553
G1 X81.806 Y67.641 E.01936
G1 X112.36 Y98.195 E2.17159
G1 X112.221 Y98.544 E.01888
G1 X81.44 Y67.764 E2.18769
G1 X81.084 Y67.896 E.01908
G1 X112.081 Y98.894 E2.20311
G1 X111.942 Y99.243 E.01888
G1 X80.75 Y68.05 E2.21697
G1 X80.416 Y68.205 E.01851
G1 X111.803 Y99.592 E2.2308
G1 X111.664 Y99.941 E.01888
G1 X80.082 Y68.359 E2.24466
G1 X79.748 Y68.514 E.01851
G1 X111.501 Y100.266 E2.25678
G1 X111.331 Y100.586 E.01821
G1 X79.414 Y68.668 E2.2685
G1 X79.08 Y68.823 E.01851
G1 X111.162 Y100.905 E2.28019
G1 X110.993 Y101.224 E.01814
G1 X78.754 Y68.985 E2.29135
G1 X78.449 Y69.168 E.01788
G1 X110.824 Y101.543 E2.30102
G1 X110.654 Y101.863 E.01821
G1 X78.144 Y69.352 E2.31065
G1 X77.839 Y69.535 E.01788
G1 X110.485 Y102.182 E2.32032
G1 X110.297 Y102.482 E.01779
G1 X77.534 Y69.719 E2.3286
G1 X77.229 Y69.902 E.01788
G1 X110.1 Y102.773 E2.33627
G1 X109.903 Y103.065 E.0177
G1 X76.924 Y70.086 E2.34395
G1 X76.619 Y70.27 E.0179
G1 X109.705 Y103.356 E2.35155
G1 X109.508 Y103.647 E.01766
G1 X76.342 Y70.481 E2.35724
G1 X76.064 Y70.691 E.01751
G1 X109.311 Y103.938 E2.363
G1 X109.113 Y104.229 E.01769
G1 X75.787 Y70.902 E2.36865
G1 X75.509 Y71.113 E.01754
G1 X108.907 Y104.511 E2.37373
G1 X108.683 Y104.775 E.0174
G1 X75.232 Y71.324 E2.37749
G1 X74.954 Y71.535 E.01754
G1 X108.459 Y105.04 E2.38133
G1 X108.234 Y105.304 E.01743
G1 X74.677 Y71.746 E2.38506
G1 X74.415 Y71.973 E.01742
G1 X108.01 Y105.568 E2.38773
G1 X107.786 Y105.832 E.0174
G1 X74.165 Y72.211 E2.38958
G1 X73.914 Y72.448 E.01735
G1 X107.561 Y106.096 E2.39146
G1 X107.337 Y106.36 E.0174
G1 X73.663 Y72.686 E2.39334
G1 X73.412 Y72.924 E.01738
G1 X107.09 Y106.601 E2.39359
G1 X106.839 Y106.839 E.01738
G1 X73.161 Y73.161 E2.39363
G1 X72.91 Y73.399 E.01738
G1 X106.588 Y107.076 E2.39359
G1 X106.337 Y107.314 E.01738
G1 X72.663 Y73.64 E2.39334
G1 X72.439 Y73.904 E.0174
G1 X106.086 Y107.552 E2.39146
G1 X105.835 Y107.789 E.01735
G1 X72.214 Y74.168 E2.38958
G1 X71.99 Y74.432 E.0174
G1 X105.585 Y108.027 E2.38773
G1 X105.323 Y108.254 E.01742
G1 X71.766 Y74.696 E2.38506
G1 X71.541 Y74.96 E.01743
G1 X105.046 Y108.465 E2.38133
G1 X104.768 Y108.676 E.01754
G1 X71.317 Y75.225 E2.37749
G1 X71.093 Y75.489 E.0174
G1 X104.491 Y108.887 E2.37373
G1 X104.213 Y109.098 E.01754
G1 X70.887 Y75.771 E2.36865
G1 X70.689 Y76.062 E.01769
G1 X103.936 Y109.309 E2.363
G1 X103.658 Y109.519 E.01751
G1 X70.492 Y76.353 E2.35724
G1 X70.295 Y76.644 E.01766
G1 X103.381 Y109.73 E2.35155
G1 X103.076 Y109.914 E.0179
G1 X70.097 Y76.935 E2.34395
G1 X69.9 Y77.227 E.0177
G1 X102.771 Y110.098 E2.33627
G1 X102.466 Y110.281 E.01788
G1 X69.703 Y77.518 E2.3286
G1 X69.515 Y77.818 E.01779
G1 X102.161 Y110.465 E2.32032
G1 X101.856 Y110.648 E.01788
G1 X69.346 Y78.137 E2.31065
G1 X69.176 Y78.457 E.01821
G1 X101.551 Y110.832 E2.30102
G1 X101.246 Y111.015 E.01788
G1 X69.007 Y78.776 E2.29135
G1 X68.838 Y79.095 E.01814
G1 X100.92 Y111.177 E2.28019
G1 X100.586 Y111.332 E.01851
G1 X68.669 Y79.414 E2.2685
G1 X68.499 Y79.734 E.01821
G1 X100.252 Y111.486 E2.25678
G1 X99.918 Y111.641 E.01851
G1 X68.336 Y80.059 E2.24466
G1 X68.197 Y80.408 E.01888
G1 X99.584 Y111.795 E2.2308
G1 X99.25 Y111.95 E.01851
G1 X68.058 Y80.757 E2.21697
G1 X67.919 Y81.106 E.01888
G1 X98.916 Y112.104 E2.20311
G1 X98.56 Y112.236 E.01908
G1 X67.779 Y81.456 E2.18769
G1 X67.64 Y81.805 E.01888
G1 X98.194 Y112.359 E2.17159
G1 X97.829 Y112.482 E.01936
G1 X67.501 Y82.154 E2.15553
G1 X67.373 Y82.514 E.0192
G1 X97.464 Y112.605 E2.13869
G1 X97.098 Y112.728 E.0194
G1 X67.267 Y82.897 E2.12021
G1 X67.161 Y83.279 E.01992
G1 X96.733 Y112.851 E2.1018
G1 X96.367 Y112.973 E.01939
G1 X67.055 Y83.661 E2.08332
G1 X66.948 Y84.044 E.01999
G1 X95.966 Y113.061 E2.06239
G1 X95.566 Y113.15 E.02059
G1 X66.842 Y84.426 E2.04153
G1 X66.736 Y84.808 E.01992
G1 X95.166 Y113.238 E2.02063
G1 X94.765 Y113.326 E.02063
G1 X66.661 Y85.221 E1.9975
G1 X66.592 Y85.641 E.02139
G1 X94.365 Y113.414 E1.97394
G1 X93.965 Y113.502 E.02058
G1 X66.523 Y86.06 E1.95041
G1 X66.454 Y86.48 E.02139
G1 X93.535 Y113.561 E1.92475
G1 X93.094 Y113.609 E.02229
G1 X66.385 Y86.899 E1.89835
G1 X66.316 Y87.319 E.02139
G1 X92.654 Y113.657 E1.87195
G1 X92.213 Y113.705 E.02229
G1 X66.282 Y87.773 E1.84305
G1 X66.257 Y88.236 E.0233
G1 X91.773 Y113.752 E1.81352
G1 X91.332 Y113.8 E.02229
G1 X66.231 Y88.7 E1.78399
G1 X66.206 Y89.163 E.0233
G1 X90.848 Y113.805 E1.7514
G1 X90.36 Y113.805 E.02453
G1 X66.181 Y89.626 E1.7185
G1 X66.166 Y90.099 E.02378
G1 X89.871 Y113.805 E1.68484
G1 X89.383 Y113.805 E.02453
G1 X66.194 Y90.615 E1.64817
G1 X66.222 Y91.132 E.02602
G1 X88.895 Y113.805 E1.61146
G1 X88.709 Y113.805 E.00935
G1 X88.369 Y113.768 E.01719
G1 X66.25 Y91.648 E1.57212
G1 X66.278 Y92.165 E.02602
G1 X87.821 Y113.708 E1.53115
G1 X87.273 Y113.649 E.0277
G1 X66.319 Y92.695 E1.48928
G1 X66.415 Y93.279 E.02974
G1 X86.725 Y113.589 E1.44351
G1 X86.177 Y113.529 E.02771
G1 X66.511 Y93.863 E1.39774
G1 X66.606 Y94.447 E.02974
G1 X85.556 Y113.396 E1.34682
G1 X84.929 Y113.259 E.03225
