; generated by PrusaSlicer 2.7.1+MacOS-arm64 on 2024-10-14 at 21:00:31 UTC


;
;
; 

; external perimeters extrusion width = 0.45mm
; perimeters extrusion width = 0.45mm
; infill extrusion width = 0.45mm
; solid infill extrusion width = 0.45mm
; top infill extrusion width = 0.40mm
; first layer extrusion width = 0.42mm

M104 S200 ; set temperature
;TYPE:Custom
;Stats

;printbedMaxX = 180
;printbedMaxY = 180 
;firstLayerXDim = 100
;firstLayerYDim = 100
;firstLayerCenterX = 99.6426
;firstLayerCenterY = 82.1834

G90 ; use absolute coordinates
M83 ; extruder relative mode
G28 ; home all without mesh bed level  
;G29 ; mesh bed leveling 
G92 E0.0
;G1 Y-2.0 X179 F2400
;G1 Z3 F720
;M109 S200 ; wait for extruder temp

;;;;;;auto probe print area only;;;;;;
;set global.minProbeX = 49.6426
;set global.maxProbeX = 149.643
;set global.minProbeY = 32.1834
;set global.maxProbeY = 132.183

T0 ; select tool 1

M568 P0 R{heat.coldExtrudeTemperature+5} S200 A1 ; (set extruder to standby to soften any protruding filament before probing )
M106 P0 S0 ;Start with fan off
M116 P0; Wait for bed before doing mesh probe.
M561 ; clear any bed transform
;M98 P"0:/sys/mesh.g" A49.6426 B149.643 C32.1834 D132.183 N30 ; set N to your desired distance between points
G29
;G29 S1 ; load small mesh
G1 X10 Y2  F2400 ; Move to Center
G1 Z3 F720 ; Raise Nozzle 
M568 P0 R{heat.coldExtrudeTemperature+5} S200 A2 ; (set standby and active temperatures for active tool.  Standby is 5 degrees above cold extrude temp )
M116 P0; Wait for all temps to stabilise


; intro line
G1 X170 F1000
G1 Z0.2 F720
G1 X110 E8 F900
G1 X40 E10 F700
G92 E0

;M221 S95 ; set flow

;START PRINTING

M109 S200 ; set temperature and wait for it to be reached
G21 ; set units to millimeters
G90 ; use absolute coordinates
M83 ; use relative distances for extrusion
; Filament gcode
M107
;LAYER_CHANGE
;Z:0.35
;HEIGHT:0.35
G1 Z.35 F600
;LAYER_NUMBER = 0
;LAYER_Z = 0.35
G1 E-3.2 F2400
G1 X99.643 Y131.283 F1800
G1 Z.35 F600
G1 E3.2 F2400
;TYPE:Perimeter
;WIDTH:0.42
G1 F1200
G1 X97.114 Y131.219 E.12696
G1 X94.618 Y131.03 E.12562
G1 X92.16 Y130.718 E.12435
G1 X89.741 Y130.286 E.12332
G1 X87.365 Y129.739 E.12236
G1 X85.035 Y129.077 E.12156
G1 X82.753 Y128.306 E.12088
G1 X80.523 Y127.427 E.12029
G1 X78.348 Y126.445 E.11976
G1 X76.231 Y125.361 E.11936
G1 X74.175 Y124.179 E.11902
G1 X72.183 Y122.903 E.11872
G1 X70.258 Y121.534 E.11855
G1 X68.404 Y120.077 E.11834
G1 X66.622 Y118.534 E.1183
G1 X64.917 Y116.909 E.11821
G1 X63.292 Y115.204 E.11821
G1 X61.749 Y113.422 E.1183
G1 X60.292 Y111.568 E.11834
G1 X58.923 Y109.643 E.11855
G1 X57.647 Y107.651 E.11872
G1 X56.465 Y105.595 E.11902
G1 X55.381 Y103.478 E.11936
G1 X54.399 Y101.303 E.11976
G1 X53.52 Y99.073 E.12029
G1 X52.749 Y96.791 E.12088
G1 X52.087 Y94.461 E.12156
G1 X51.54 Y92.085 E.12236
G1 X51.108 Y89.666 E.12332
G1 X50.796 Y87.208 E.12435
G1 X50.607 Y84.712 E.12562
G1 X50.543 Y82.183 E.12696
G1 X50.607 Y79.654 E.12696
G1 X50.796 Y77.159 E.12557
G1 X51.108 Y74.701 E.12435
G1 X51.54 Y72.282 E.12332
G1 X52.087 Y69.906 E.12236
G1 X52.749 Y67.576 E.12156
G1 X53.52 Y65.294 E.12088
G1 X54.399 Y63.064 E.12029
G1 X55.381 Y60.889 E.11976
G1 X56.465 Y58.772 E.11936
G1 X57.647 Y56.716 E.11902
G1 X58.923 Y54.724 E.11872
G1 X60.292 Y52.799 E.11855
G1 X61.749 Y50.944 E.11838
G1 X63.292 Y49.163 E.11826
G1 X64.917 Y47.458 E.11821
G1 X66.622 Y45.832 E.11824
G1 X68.404 Y44.29 E.11827
G1 X70.258 Y42.832 E.11837
G1 X72.183 Y41.464 E.11852
G1 X74.175 Y40.187 E.11875
G1 X76.231 Y39.006 E.11899
G1 X78.348 Y37.922 E.11936
G1 X80.523 Y36.939 E.11978
G1 X82.753 Y36.061 E.12028
G1 X85.035 Y35.289 E.1209
G1 X87.365 Y34.628 E.12155
G1 X89.741 Y34.08 E.12237
G1 X92.16 Y33.649 E.12331
G1 X94.618 Y33.337 E.12435
G1 X97.114 Y33.147 E.12563
G1 X99.643 Y33.083 E.12696
G1 X102.172 Y33.147 E.12696
G1 X104.667 Y33.337 E.12558
G1 X107.125 Y33.649 E.12435
G1 X109.544 Y34.08 E.12331
G1 X111.92 Y34.628 E.12237
G1 X114.25 Y35.289 E.12155
G1 X116.532 Y36.061 E.1209
G1 X118.762 Y36.939 E.12028
G1 X120.937 Y37.922 E.11978
G1 X123.054 Y39.006 E.11936
G1 X125.11 Y40.187 E.11899
G1 X127.102 Y41.464 E.11875
G1 X129.027 Y42.832 E.11852
G1 X130.882 Y44.29 E.11841
G1 X132.663 Y45.832 E.11823
G1 X134.368 Y47.458 E.11824
G1 X135.994 Y49.163 E.11824
G1 X137.536 Y50.944 E.11823
G1 X138.994 Y52.799 E.11841
G1 X140.362 Y54.724 E.11852
G1 X141.639 Y56.716 E.11875
G1 X142.82 Y58.772 E.11899
G1 X143.904 Y60.889 E.11936
G1 X144.887 Y63.064 E.11978
G1 X145.765 Y65.294 E.12028
G1 X146.537 Y67.576 E.1209
G1 X147.198 Y69.906 E.12155
G1 X147.746 Y72.282 E.12237
G1 X148.177 Y74.701 E.12331
G1 X148.489 Y77.159 E.12435
G1 X148.679 Y79.654 E.12558
G1 X148.742 Y82.22 E.12882
G1 X148.679 Y84.712 E.1251
G1 X148.489 Y87.208 E.12563
G1 X148.177 Y89.666 E.12435
G1 X147.746 Y92.085 E.12331
G1 X147.198 Y94.461 E.12237
G1 X146.537 Y96.791 E.12155
G1 X145.765 Y99.073 E.1209
G1 X144.887 Y101.303 E.12028
G1 X143.904 Y103.478 E.11978
G1 X142.82 Y105.595 E.11936
G1 X141.639 Y107.651 E.11899
G1 X140.362 Y109.643 E.11875
G1 X138.994 Y111.568 E.11852
G1 X137.536 Y113.422 E.11837
G1 X135.994 Y115.204 E.11827
G1 X134.368 Y116.909 E.11824
G1 X132.663 Y118.534 E.11821
G1 X130.882 Y120.077 E.11826
G1 X129.027 Y121.534 E.11838
G1 X127.102 Y122.903 E.11855
G1 X125.11 Y124.179 E.11872
G1 X123.054 Y125.361 E.11902
G1 X120.937 Y126.445 E.11936
G1 X118.762 Y127.427 E.11976
G1 X116.532 Y128.306 E.12029
G1 X114.25 Y129.077 E.12088
G1 X111.92 Y129.739 E.12156
G1 X109.544 Y130.286 E.12236
G1 X107.125 Y130.718 E.12332
G1 X104.667 Y131.03 E.12435
G1 X102.172 Y131.219 E.12557
G1 X99.703 Y131.282 E.12395
G1 X99.643 Y131.628 F1800
G1 F1200
G1 X97.096 Y131.564 E.12786
G1 X94.584 Y131.373 E.12643
G1 X92.108 Y131.059 E.12526
G1 X89.672 Y130.624 E.12419
G1 X87.279 Y130.073 E.12324
G1 X84.932 Y129.407 E.12244
G1 X82.635 Y128.63 E.12169
G1 X80.389 Y127.745 E.12115
G1 X78.199 Y126.756 E.12059
G1 X76.067 Y125.664 E.12021
G1 X73.996 Y124.474 E.11987
G1 X71.99 Y123.189 E.11956
G1 X70.052 Y121.811 E.11934
G1 X68.184 Y120.343 E.11923
G1 X66.39 Y118.79 E.11908
G1 X64.673 Y117.153 E.11906
G1 X63.036 Y115.436 E.11906
G1 X61.483 Y113.642 E.11908
G1 X60.015 Y111.774 E.11923
G1 X58.637 Y109.836 E.11934
G1 X57.352 Y107.83 E.11956
G1 X56.162 Y105.759 E.11987
G1 X55.07 Y103.627 E.12021
G1 X54.081 Y101.437 E.12059
G1 X53.196 Y99.191 E.12115
G1 X52.419 Y96.894 E.12169
G1 X51.753 Y94.547 E.12244
G1 X51.202 Y92.154 E.12324
G1 X50.767 Y89.718 E.12419
G1 X50.453 Y87.242 E.12526
G1 X50.262 Y84.73 E.12643
G1 X50.198 Y82.183 E.12786
G1 X50.262 Y79.637 E.12781
G1 X50.453 Y77.124 E.12648
G1 X50.767 Y74.649 E.12521
G1 X51.202 Y72.213 E.12419
G1 X51.753 Y69.82 E.12324
G1 X52.419 Y67.473 E.12244
G1 X53.196 Y65.175 E.12174
G1 X54.081 Y62.93 E.12111
G1 X55.07 Y60.74 E.12059
G1 X56.162 Y58.608 E.12021
G1 X57.352 Y56.537 E.11987
G1 X58.637 Y54.531 E.11956
G1 X60.015 Y52.592 E.11938
G1 X61.483 Y50.725 E.11919
G1 X63.036 Y48.931 E.11908
G1 X64.673 Y47.214 E.11906
G1 X66.39 Y45.577 E.11906
G1 X68.184 Y44.023 E.11911
G1 X70.052 Y42.556 E.1192
G1 X71.99 Y41.178 E.11934
G1 X73.996 Y39.892 E.11958
G1 X76.067 Y38.702 E.11987
G1 X78.199 Y37.611 E.12019
G1 X80.389 Y36.622 E.12059
G1 X82.635 Y35.737 E.12115
G1 X84.932 Y34.96 E.12169
G1 X87.279 Y34.294 E.12244
G1 X89.672 Y33.742 E.12325
G1 X92.108 Y33.308 E.12418
G1 X94.584 Y32.994 E.12526
G1 X97.096 Y32.803 E.12643
G1 X99.643 Y32.738 E.12787
G1 X102.189 Y32.803 E.12781
G1 X104.702 Y32.994 E.12648
G1 X107.177 Y33.308 E.12521
G1 X109.613 Y33.742 E.12418
G1 X112.006 Y34.294 E.12325
G1 X114.353 Y34.96 E.12244
G1 X116.651 Y35.737 E.12174
G1 X118.896 Y36.622 E.12111
G1 X121.086 Y37.611 E.12059
G1 X123.218 Y38.702 E.12019
G1 X125.289 Y39.892 E.11987
G1 X127.295 Y41.178 E.11958
G1 X129.234 Y42.556 E.11938
G1 X131.101 Y44.023 E.11916
G1 X132.895 Y45.577 E.11911
G1 X134.612 Y47.214 E.11906
G1 X136.249 Y48.931 E.11906
G1 X137.803 Y50.725 E.11911
G1 X139.27 Y52.592 E.11916
G1 X140.648 Y54.531 E.11938
G1 X141.934 Y56.537 E.11958
G1 X143.124 Y58.608 E.11987
G1 X144.215 Y60.74 E.12019
G1 X145.205 Y62.93 E.12062
G1 X146.089 Y65.175 E.12109
G1 X146.866 Y67.473 E.12174
G1 X147.532 Y69.82 E.12244
G1 X148.084 Y72.213 E.12325
G1 X148.518 Y74.649 E.12418
G1 X148.832 Y77.124 E.12521
G1 X149.023 Y79.637 E.12648
G1 X149.086 Y82.229 E.13012
G1 X149.023 Y84.73 E.12555
G1 X148.832 Y87.242 E.12643
G1 X148.518 Y89.718 E.12526
G1 X148.084 Y92.154 E.12418
G1 X147.532 Y94.547 E.12325
G1 X146.866 Y96.894 E.12244
G1 X146.089 Y99.191 E.12169
G1 X145.205 Y101.437 E.12113
G1 X144.215 Y103.627 E.12062
G1 X143.124 Y105.759 E.12019
G1 X141.934 Y107.83 E.11987
G1 X140.648 Y109.836 E.11958
G1 X139.27 Y111.774 E.11934
G1 X137.803 Y113.642 E.1192
G1 X136.249 Y115.436 E.11911
G1 X134.612 Y117.153 E.11906
G1 X132.895 Y118.79 E.11906
G1 X131.101 Y120.343 E.11908
G1 X129.234 Y121.811 E.11919
G1 X127.295 Y123.189 E.11938
G1 X125.289 Y124.474 E.11956
G1 X123.219 Y125.664 E.11983
G1 X121.086 Y126.756 E.12026
G1 X118.896 Y127.745 E.12059
G1 X116.651 Y128.63 E.12111
G1 X114.353 Y129.407 E.12174
G1 X112.006 Y130.073 E.12244
G1 X109.613 Y130.624 E.12324
G1 X107.177 Y131.059 E.12419
G1 X104.702 Y131.373 E.12521
G1 X102.189 Y131.564 E.12648
G1 X99.703 Y131.627 E.1248
G1 X99.643 Y131.973 F1800
;TYPE:External perimeter
G1 F1200
G1 X97.079 Y131.909 E.12872
G1 X94.549 Y131.716 E.12734
G1 X92.056 Y131.4 E.12611
G1 X89.603 Y130.962 E.12505
G1 X87.193 Y130.407 E.12411
G1 X84.83 Y129.736 E.12328
G1 X82.516 Y128.954 E.12258
G1 X80.255 Y128.063 E.12196
G1 X78.049 Y127.066 E.12149
G1 X75.902 Y125.968 E.12102
G1 X73.817 Y124.769 E.12071
G1 X71.797 Y123.475 E.12039
G1 X69.845 Y122.087 E.1202
G1 X67.965 Y120.609 E.12002
G1 X66.158 Y119.045 E.11994
G1 X64.429 Y117.397 E.11987
G1 X62.781 Y115.668 E.11987
G1 X61.217 Y113.862 E.1199
G1 X59.739 Y111.981 E.12005
G1 X58.351 Y110.029 E.1202
G1 X57.057 Y108.009 E.12039
G1 X55.858 Y105.924 E.12071
G1 X54.759 Y103.777 E.12104
G1 X53.763 Y101.571 E.12147
G1 X52.872 Y99.31 E.12196
G1 X52.09 Y96.996 E.12258
G1 X51.419 Y94.633 E.12328
G1 X50.864 Y92.223 E.12411
G1 X50.426 Y89.77 E.12505
G1 X50.11 Y87.277 E.12611
G1 X49.917 Y84.747 E.12734
G1 X49.853 Y82.183 E.12872
G1 X49.917 Y79.619 E.12872
G1 X50.11 Y77.09 E.12729
G1 X50.426 Y74.597 E.12611
G1 X50.864 Y72.144 E.12505
G1 X51.419 Y69.734 E.12411
G1 X52.09 Y67.371 E.12328
G1 X52.872 Y65.057 E.12258
G1 X53.763 Y62.796 E.12196
G1 X54.759 Y60.59 E.12147
G1 X55.858 Y58.443 E.12104
G1 X57.057 Y56.358 E.12071
G1 X58.351 Y54.338 E.12039
G1 X59.739 Y52.386 E.1202
G1 X61.217 Y50.505 E.12005
G1 X62.781 Y48.699 E.1199
G1 X64.429 Y46.97 E.11987
G1 X66.158 Y45.322 E.11987
G1 X67.965 Y43.757 E.11997
G1 X69.845 Y42.28 E.11998
G1 X71.797 Y40.892 E.1202
G1 X73.817 Y39.598 E.12039
G1 X75.902 Y38.399 E.12071
G1 X78.049 Y37.3 E.12104
G1 X80.255 Y36.304 E.12147
G1 X82.516 Y35.413 E.12196
G1 X84.83 Y34.63 E.1226
G1 X87.193 Y33.96 E.12326
G1 X89.603 Y33.404 E.12412
G1 X92.056 Y32.967 E.12504
G1 X94.549 Y32.65 E.12612
G1 X97.079 Y32.458 E.12734
G1 X99.643 Y32.393 E.12872
G1 X102.207 Y32.458 E.12872
G1 X104.736 Y32.65 E.12729
G1 X107.229 Y32.967 E.12612
G1 X109.682 Y33.404 E.12504
G1 X112.092 Y33.96 E.12412
G1 X114.455 Y34.63 E.12326
G1 X116.769 Y35.413 E.1226
G1 X119.03 Y36.304 E.12196
G1 X121.236 Y37.3 E.12147
G1 X123.383 Y38.399 E.12104
G1 X125.468 Y39.598 E.12071
G1 X127.488 Y40.892 E.12039
G1 X129.44 Y42.28 E.1202
G1 X131.321 Y43.757 E.12002
G1 X133.127 Y45.322 E.11993
G1 X134.856 Y46.97 E.11987
G1 X136.504 Y48.699 E.11987
G1 X138.069 Y50.505 E.11993
G1 X139.546 Y52.386 E.12002
G1 X140.934 Y54.338 E.1202
G1 X142.228 Y56.358 E.12039
G1 X143.427 Y58.443 E.12071
G1 X144.526 Y60.59 E.12104
G1 X145.522 Y62.796 E.12147
G1 X146.413 Y65.057 E.12196
G1 X147.196 Y67.371 E.1226
G1 X147.866 Y69.734 E.12326
G1 X148.422 Y72.144 E.12412
G1 X148.859 Y74.597 E.12504
G1 X149.176 Y77.09 E.12612
G1 X149.368 Y79.619 E.12729
G1 X149.431 Y82.238 E.13147
G1 X149.368 Y84.747 E.12596
G1 X149.176 Y87.277 E.12734
G1 X148.859 Y89.77 E.12612
G1 X148.422 Y92.223 E.12504
G1 X147.866 Y94.633 E.12412
G1 X147.196 Y96.996 E.12326
G1 X146.413 Y99.31 E.1226
G1 X145.522 Y101.571 E.12196
G1 X144.526 Y103.777 E.12147
G1 X143.427 Y105.924 E.12104
G1 X142.228 Y108.009 E.12071
G1 X140.934 Y110.029 E.12039
G1 X139.546 Y111.981 E.1202
G1 X138.069 Y113.862 E.12002
G1 X136.504 Y115.668 E.11993
G1 X134.856 Y117.397 E.11987
G1 X133.127 Y119.045 E.11987
G1 X131.321 Y120.609 E.1199
G1 X129.44 Y122.087 E.12005
G1 X127.488 Y123.475 E.1202
G1 X125.468 Y124.769 E.12039
G1 X123.383 Y125.968 E.12071
G1 X121.236 Y127.066 E.12102
G1 X119.03 Y128.063 E.12149
G1 X116.769 Y128.954 E.12196
G1 X114.455 Y129.736 E.12258
G1 X112.092 Y130.407 E.12328
G1 X109.682 Y130.962 E.12411
G1 X107.229 Y131.4 E.12505
G1 X104.736 Y131.716 E.12611
G1 X102.207 Y131.909 E.12729
G1 X99.703 Y131.972 E.12571
G1 X99.303 Y131.964 F1800
G1 E-3.2 F2400
G1 X99.647 Y128.361 F1800
G1 E3.2 F2400
;TYPE:Perimeter
G1 F1200
G1 X97.29 Y128.303 E.11832
G1 X94.945 Y128.125 E.11802
G1 X92.634 Y127.833 E.1169
G1 X90.36 Y127.427 E.11593
G1 X88.126 Y126.913 E.11504
G1 X85.934 Y126.291 E.11435
G1 X83.788 Y125.566 E.11368
G1 X81.69 Y124.74 E.11316
G1 X79.644 Y123.815 E.11269
G1 X77.652 Y122.796 E.11229
G1 X75.718 Y121.685 E.11193
G1 X73.843 Y120.484 E.11175
G1 X72.032 Y119.198 E.11147
G1 X70.256 Y117.801 E.1134
G1 X68.581 Y116.349 E.11125
G1 X66.978 Y114.819 E.11121
G1 X65.449 Y113.215 E.11121
G1 X63.999 Y111.539 E.11122
G1 X62.628 Y109.794 E.11137
G1 X61.342 Y107.983 E.11147
G1 X60.141 Y106.108 E.11175
G1 X59.03 Y104.174 E.11193
G1 X58.011 Y102.182 E.11229
G1 X57.086 Y100.136 E.11269
G1 X56.26 Y98.038 E.11316
G1 X55.535 Y95.892 E.11368
G1 X54.913 Y93.7 E.11435
G1 X54.399 Y91.466 E.11504
G1 X53.993 Y89.192 E.11593
G1 X53.701 Y86.881 E.1169
G1 X53.523 Y84.537 E.11797
G1 X53.464 Y82.205 E.11707
G1 X53.523 Y79.83 E.11923
G1 X53.701 Y77.486 E.11797
G1 X53.993 Y75.175 E.1169
G1 X54.399 Y72.901 E.11593
G1 X54.913 Y70.666 E.11509
G1 X55.535 Y68.475 E.1143
G1 X56.26 Y66.328 E.11373
G1 X57.086 Y64.231 E.11311
G1 X58.011 Y62.185 E.11269
G1 X59.03 Y60.193 E.11229
G1 X60.141 Y58.258 E.11198
G1 X61.342 Y56.384 E.1117
G1 X62.628 Y54.573 E.11147
G1 X63.999 Y52.828 E.11137
G1 X65.449 Y51.152 E.11122
G1 X66.978 Y49.548 E.11121
G1 X68.581 Y48.018 E.11121
G1 X70.287 Y46.539 E.11331
G1 X72.032 Y45.169 E.11134
G1 X73.843 Y43.882 E.1115
G1 X75.718 Y42.682 E.11172
G1 X77.652 Y41.57 E.11196
G1 X79.644 Y40.551 E.11229
G1 X81.69 Y39.627 E.11267
G1 X83.788 Y38.801 E.11316
G1 X85.934 Y38.076 E.11368
G1 X88.126 Y37.454 E.11435
G1 X90.36 Y36.939 E.11506
G1 X92.634 Y36.534 E.11592
G1 X94.945 Y36.241 E.11691
G1 X97.29 Y36.064 E.11802
G1 X99.621 Y36.005 E.11702
G1 X101.996 Y36.064 E.11923
G1 X104.34 Y36.241 E.11797
G1 X106.651 Y36.534 E.11691
G1 X108.925 Y36.939 E.11592
G1 X111.16 Y37.454 E.1151
G1 X113.351 Y38.076 E.1143
G1 X115.498 Y38.801 E.11373
G1 X117.595 Y39.627 E.11311
G1 X119.641 Y40.551 E.11267
G1 X121.633 Y41.57 E.11229
G1 X123.568 Y42.682 E.112
G1 X125.442 Y43.882 E.11168
G1 X127.253 Y45.169 E.1115
G1 X128.998 Y46.539 E.11134
G1 X130.674 Y47.99 E.11125
G1 X132.308 Y49.548 E.11331
G1 X133.836 Y51.152 E.11118
G1 X135.287 Y52.828 E.11125
G1 X136.657 Y54.573 E.11134
G1 X137.944 Y56.384 E.1115
G1 X139.144 Y58.258 E.11168
G1 X140.256 Y60.193 E.112
G1 X141.275 Y62.185 E.11229
G1 X142.199 Y64.231 E.11267
G1 X143.025 Y66.328 E.11311
G1 X143.75 Y68.475 E.11373
G1 X144.372 Y70.666 E.1143
G1 X144.887 Y72.901 E.1151
G1 X145.292 Y75.175 E.11592
G1 X145.585 Y77.486 E.11691
G1 X145.762 Y79.83 E.11797
G1 X145.821 Y82.162 E.11707
G1 X145.762 Y84.537 E.11923
G1 X145.585 Y86.881 E.11797
G1 X145.292 Y89.192 E.11691
G1 X144.887 Y91.466 E.11592
G1 X144.372 Y93.7 E.11506
G1 X143.75 Y95.892 E.11435
G1 X143.025 Y98.038 E.11368
G1 X142.199 Y100.136 E.11316
G1 X141.275 Y102.182 E.11267
G1 X140.256 Y104.174 E.11229
G1 X139.144 Y106.108 E.11196
G1 X137.944 Y107.983 E.11172
G1 X136.657 Y109.794 E.1115
G1 X135.287 Y111.539 E.11134
G1 X133.808 Y113.245 E.11331
G1 X132.278 Y114.848 E.11121
G1 X130.674 Y116.377 E.11121
G1 X128.998 Y117.827 E.11122
G1 X127.253 Y119.198 E.11137
