; generated by PrusaSlicer 2.7.1+MacOS-arm64 on 2024-08-06 at 21:56:17 UTC


;
;
; 

; external perimeters extrusion width = 0.45mm
; perimeters extrusion width = 0.45mm
; infill extrusion width = 0.45mm
; solid infill extrusion width = 0.45mm
; top infill extrusion width = 0.40mm
; first layer extrusion width = 0.42mm

M104 S200 ; set temperature
;TYPE:Custom
;Stats

;printbedMaxX = 180
;printbedMaxY = 180 
;firstLayerXDim = 122.164
;firstLayerYDim = 81.8476
;firstLayerCenterX = 90
;firstLayerCenterY = 90

G90 ; use absolute coordinates
M83 ; extruder relative mode
G28 ; home all without mesh bed level  
;G29 ; mesh bed leveling 
G92 E0.0
;G1 Y-2.0 X179 F2400
;G1 Z3 F720
;M109 S200 ; wait for extruder temp

;;;;;;auto probe print area only;;;;;;
;set global.minProbeX = 28.9179
;set global.maxProbeX = 151.082
;set global.minProbeY = 49.0762
;set global.maxProbeY = 130.924

T0 ; select tool 1

M568 P0 R{heat.coldExtrudeTemperature+5} S200 A1 ; (set extruder to standby to soften any protruding filament before probing )
M106 P0 S0 ;Start with fan off
M116 P0; Wait for bed before doing mesh probe.
M561 ; clear any bed transform
;M98 P"0:/sys/mesh.g" A28.9179 B151.082 C49.0762 D130.924 N30 ; set N to your desired distance between points
G29
;G29 S1 ; load small mesh
G1 X10 Y2  F2400 ; Move to Center
G1 Z3 F720 ; Raise Nozzle 
M568 P0 R{heat.coldExtrudeTemperature+5} S200 A2 ; (set standby and active temperatures for active tool.  Standby is 5 degrees above cold extrude temp )
M116 P0; Wait for all temps to stabilise


; intro line
G1 X170 F1000
G1 Z0.2 F720
G1 X110 E8 F900
G1 X40 E10 F700
G92 E0

;M221 S95 ; set flow

;START PRINTING

M109 S200 ; set temperature and wait for it to be reached
G21 ; set units to millimeters
G90 ; use absolute coordinates
M83 ; use relative distances for extrusion
; Filament gcode
M107
;LAYER_CHANGE
;Z:0.35
;HEIGHT:0.35
G1 Z.35 F600
;LAYER_NUMBER = 0
;LAYER_Z = 0.35
G1 E-3.2 F2400
G1 X36.514 Y52.859 F3600
G1 Z.35 F600
G1 E3.2 F2400
;TYPE:Skirt/Brim
;WIDTH:0.42
G1 F900
G1 X38.417 Y51.623 E.11388
G1 X39.816 Y50.91 E.0788
G1 X41.601 Y50.205 E.09632
G1 X43.793 Y49.618 E.11388
G1 X45.344 Y49.372 E.07881
G1 X47.26 Y49.253 E.09634
G1 X132.74 Y49.253 E4.28989
G1 X134.308 Y49.335 E.0788
G1 X136.207 Y49.618 E.09636
G1 X138.066 Y50.097 E.09634
G1 X139.791 Y50.739 E.09237
G1 X141.887 Y51.798 E.11785
G1 X143.203 Y52.653 E.07876
G1 X144.707 Y53.847 E.09637
G1 X146.311 Y55.452 E.11388
G1 X147.505 Y56.955 E.09633
G1 X148.535 Y58.575 E.09634
G1 X149.248 Y59.974 E.0788
G1 X149.953 Y61.76 E.09636
G1 X150.468 Y63.609 E.09633
G1 X150.786 Y65.502 E.09633
G1 X150.91 Y67.594 E.10517
G1 X150.91 Y112.406 E2.24893
G1 X150.786 Y114.498 E.10517
G1 X150.541 Y116.048 E.07875
G1 X150.062 Y117.907 E.09634
G1 X149.391 Y119.706 E.09636
G1 X148.535 Y121.425 E.09637
G1 X147.505 Y123.045 E.09634
G1 X146.311 Y124.548 E.09633
G1 X144.967 Y125.919 E.09635
G1 X143.487 Y127.141 E.09632
G1 X141.583 Y128.377 E.11392
G1 X140.184 Y129.09 E.0788
G1 X138.399 Y129.795 E.09632
G1 X136.207 Y130.382 E.11388
G1 X134.656 Y130.628 E.07881
G1 X132.74 Y130.747 E.09634
G1 X47.26 Y130.747 E4.28989
G1 X45.344 Y130.628 E.09634
G1 X43.793 Y130.382 E.07881
G1 X41.934 Y129.903 E.09634
G1 X40.135 Y129.232 E.09636
G1 X38.417 Y128.377 E.09631
G1 X36.797 Y127.347 E.09634
G1 X35.293 Y126.153 E.09637
G1 X33.923 Y124.809 E.09632
G1 X32.701 Y123.328 E.09636
G1 X31.465 Y121.425 E.11388
G1 X30.752 Y120.026 E.0788
G1 X30.047 Y118.24 E.09636
G1 X29.459 Y116.048 E.1139
G1 X29.177 Y114.149 E.09635
G1 X29.09 Y112.406 E.08758
G1 X29.09 Y67.594 E2.24893
G1 X29.177 Y65.85 E.08763
G1 X29.459 Y63.952 E.0963
G1 X29.938 Y62.093 E.09634
G1 X30.609 Y60.294 E.09636
G1 X31.465 Y58.575 E.09637
G1 X32.495 Y56.955 E.09634
G1 X33.689 Y55.452 E.09633
G1 X35.033 Y54.081 E.09635
G1 X36.467 Y52.897 E.09333
G1 E-3.2 F2400
G1 X36.467 Y52.897 F3600
G1 X132.539 Y126.507
G1 E3.2 F2400
;TYPE:Perimeter
;WIDTH:0.42
G1 F900
G1 X47.459 Y126.507 E4.26981
G1 X45.961 Y126.428 E.07528
G1 X44.504 Y126.197 E.07403
G1 X43.078 Y125.815 E.07409
G1 X41.701 Y125.287 E.07401
G1 X40.386 Y124.617 E.07407
G1 X39.148 Y123.813 E.07408
G1 X38.001 Y122.884 E.07408
G1 X36.958 Y121.841 E.07403
G1 X36.029 Y120.694 E.07408
G1 X35.225 Y119.456 E.07408
G1 X34.555 Y118.141 E.07407
G1 X34.026 Y116.763 E.07408
G1 X33.644 Y115.338 E.07404
G1 X33.413 Y113.88 E.07408
G1 X33.335 Y112.383 E.07523
G1 X33.335 Y67.617 E2.24662
G1 X33.413 Y66.12 E.07523
G1 X33.644 Y64.662 E.07408
G1 X34.026 Y63.237 E.07404
G1 X34.555 Y61.859 E.07408
G1 X35.225 Y60.544 E.07407
G1 X36.029 Y59.306 E.07408
G1 X36.91 Y58.219 E.07022
G1 X38.003 Y57.115 E.07797
G1 X39.148 Y56.187 E.07397
G1 X40.386 Y55.383 E.07408
G1 X41.701 Y54.713 E.07407
G1 X43.078 Y54.185 E.07401
G1 X44.504 Y53.803 E.07409
G1 X45.886 Y53.584 E.07022
G1 X47.461 Y53.493 E.07917
G1 X132.541 Y53.493 E4.26981
G1 X133.962 Y53.568 E.07141
G1 X135.498 Y53.803 E.07798
G1 X136.922 Y54.185 E.07399
G1 X138.299 Y54.713 E.07401
G1 X139.614 Y55.383 E.07407
G1 X140.852 Y56.187 E.07408
G1 X141.999 Y57.116 E.07408
G1 X143.042 Y58.159 E.07403
G1 X143.971 Y59.306 E.07408
G1 X144.775 Y60.544 E.07408
G1 X145.41 Y61.791 E.07023
G1 X145.974 Y63.239 E.07799
G1 X146.356 Y64.662 E.07394
G1 X146.533 Y65.783 E.05696
G1 X146.604 Y66.461 E.03421
G1 X146.665 Y67.788 E.06667
G1 X146.665 Y112.383 E2.23804
G1 X146.587 Y113.88 E.07523
G1 X146.356 Y115.338 E.07408
G1 X145.974 Y116.763 E.07404
G1 X145.445 Y118.141 E.07408
G1 X144.775 Y119.456 E.07407
G1 X143.971 Y120.694 E.07408
G1 X143.042 Y121.841 E.07408
G1 X141.999 Y122.884 E.07403
G1 X140.852 Y123.813 E.07408
G1 X139.614 Y124.617 E.07408
G1 X138.299 Y125.287 E.07407
G1 X136.922 Y125.815 E.07401
G1 X135.496 Y126.197 E.07409
G1 X134.114 Y126.416 E.07022
G1 X132.599 Y126.503 E.07616
G1 X132.549 Y126.852 F3600
G1 F900
G1 X47.45 Y126.852 E4.27077
G1 X45.925 Y126.772 E.07664
G1 X44.432 Y126.535 E.07587
G1 X42.972 Y126.144 E.07585
G1 X41.56 Y125.602 E.0759
G1 X40.213 Y124.916 E.07586
G1 X38.945 Y124.092 E.07589
G1 X37.77 Y123.141 E.07586
G1 X36.701 Y122.072 E.07587
G1 X35.75 Y120.897 E.07586
G1 X34.926 Y119.629 E.07589
G1 X34.24 Y118.282 E.07586
G1 X33.698 Y116.87 E.0759
G1 X33.307 Y115.41 E.07585
G1 X33.07 Y113.916 E.07592
G1 X32.99 Y112.392 E.07659
G1 X32.99 Y67.608 E2.24752
G1 X33.07 Y66.084 E.07659
G1 X33.307 Y64.59 E.07592
G1 X33.698 Y63.13 E.07585
G1 X34.24 Y61.718 E.0759
G1 X34.926 Y60.371 E.07586
G1 X35.75 Y59.103 E.07589
G1 X36.652 Y57.988 E.07197
G1 X37.771 Y56.858 E.07981
G1 X38.945 Y55.908 E.07579
G1 X40.213 Y55.084 E.07589
G1 X41.56 Y54.398 E.07586
G1 X42.972 Y53.856 E.0759
G1 X44.432 Y53.465 E.07585
G1 X45.849 Y53.24 E.072
G1 X47.451 Y53.148 E.08053
G1 X132.55 Y53.148 E4.27077
G1 X133.998 Y53.224 E.07277
G1 X135.569 Y53.465 E.07976
G1 X137.028 Y53.856 E.0758
G1 X138.44 Y54.398 E.0759
G1 X139.787 Y55.084 E.07586
G1 X141.055 Y55.908 E.07589
G1 X142.23 Y56.859 E.07586
G1 X143.299 Y57.928 E.07587
G1 X144.25 Y59.103 E.07586
G1 X145.074 Y60.371 E.07589
G1 X145.725 Y61.65 E.07202
G1 X146.303 Y63.131 E.07979
G1 X146.693 Y64.59 E.07579
G1 X146.874 Y65.729 E.05788
G1 X146.949 Y66.443 E.03603
G1 X147.01 Y67.788 E.06757
G1 X147.01 Y112.392 E2.23849
G1 X146.93 Y113.916 E.07659
G1 X146.693 Y115.41 E.07592
G1 X146.302 Y116.87 E.07585
G1 X145.76 Y118.282 E.0759
G1 X145.074 Y119.629 E.07586
G1 X144.25 Y120.897 E.07589
G1 X143.299 Y122.072 E.07586
G1 X142.23 Y123.141 E.07587
G1 X141.055 Y124.092 E.07586
G1 X139.787 Y124.916 E.07589
G1 X138.44 Y125.602 E.07586
G1 X137.028 Y126.144 E.0759
G1 X135.568 Y126.535 E.07585
G1 X134.151 Y126.76 E.072
G1 X132.609 Y126.848 E.07751
G1 X132.559 Y127.196 F3600
;TYPE:External perimeter
G1 F900
G1 X47.441 Y127.196 E4.27172
G1 X45.889 Y127.115 E.07799
G1 X44.36 Y126.873 E.07769
G1 X42.865 Y126.472 E.07768
G1 X41.42 Y125.918 E.07767
G1 X40.04 Y125.215 E.07773
G1 X38.742 Y124.372 E.07767
G1 X37.539 Y123.397 E.07771
G1 X36.444 Y122.303 E.07768
G1 X35.47 Y121.1 E.07768
G1 X34.627 Y119.801 E.07772
G1 X33.924 Y118.422 E.07768
G1 X33.369 Y116.977 E.07768
G1 X32.969 Y115.481 E.07772
G1 X32.727 Y113.952 E.07769
G1 X32.645 Y112.401 E.07795
G1 X32.645 Y67.599 E2.24843
G1 X32.727 Y66.048 E.07795
G1 X32.969 Y64.519 E.07769
G1 X33.369 Y63.023 E.07772
G1 X33.924 Y61.578 E.07768
G1 X34.627 Y60.199 E.07768
G1 X35.47 Y58.9 E.07772
G1 X36.395 Y57.758 E.07375
G1 X37.539 Y56.602 E.08162
G1 X38.742 Y55.628 E.07768
G1 X40.04 Y54.785 E.07767
G1 X41.42 Y54.082 E.07773
G1 X42.865 Y53.528 E.07767
G1 X44.36 Y53.127 E.07768
G1 X45.812 Y52.897 E.07378
G1 X47.441 Y52.804 E.08189
G1 X132.559 Y52.804 E4.27172
G1 X134.033 Y52.881 E.07407
G1 X135.64 Y53.127 E.08159
G1 X137.135 Y53.528 E.07768
G1 X138.58 Y54.082 E.07767
G1 X139.96 Y54.785 E.07773
G1 X141.258 Y55.628 E.07767
G1 X142.461 Y56.603 E.07771
G1 X143.556 Y57.697 E.07768
G1 X144.53 Y58.9 E.07768
G1 X145.373 Y60.199 E.07772
G1 X146.04 Y61.509 E.07377
G1 X146.631 Y63.024 E.08161
G1 X147.031 Y64.519 E.07767
G1 X147.214 Y65.675 E.05874
G1 X147.293 Y66.425 E.03785
G1 X147.355 Y67.788 E.06847
G1 X147.355 Y112.401 E2.23894
G1 X147.273 Y113.952 E.07795
G1 X147.031 Y115.481 E.07769
G1 X146.631 Y116.977 E.07772
G1 X146.076 Y118.422 E.07768
G1 X145.373 Y119.801 E.07768
G1 X144.53 Y121.1 E.07772
G1 X143.556 Y122.303 E.07768
G1 X142.461 Y123.397 E.07768
G1 X141.258 Y124.372 E.07771
G1 X139.96 Y125.215 E.07767
G1 X138.58 Y125.918 E.07773
G1 X137.135 Y126.472 E.07767
G1 X135.64 Y126.873 E.07768
G1 X134.188 Y127.103 E.07378
G1 X132.619 Y127.193 E.07887
G1 X132.219 Y127.196 F3600
G1 E-3.2 F2400
G1 X121.34 Y91.569 F3600
G1 E3.2 F2400
;TYPE:Perimeter
G1 F900
G1 X121.257 Y91.577 E.00418
G1 X117.059 Y91.577 E.21068
G1 X116.712 Y91.505 E.01779
G1 X116.416 Y91.29 E.01836
G1 X116.265 Y91.051 E.01419
G1 X116.197 Y90.715 E.0172
G1 X116.197 Y90.133 E.02921
G1 X116.197 Y65.719 E1.22524
G1 X116.23 Y65.482 E.01201
G1 X116.404 Y65.158 E.01846
G1 X116.673 Y64.948 E.01713
G1 X116.939 Y64.865 E.01398
G1 X117.059 Y64.857 E.00604
G1 X121.257 Y64.857 E.21068
G1 X121.579 Y64.919 E.01646
G1 X121.798 Y65.048 E.01276
G1 X121.914 Y65.291 E.01351
G1 X122.031 Y65.048 E.01354
G1 X122.402 Y64.874 E.02056
G1 X122.572 Y64.857 E.00857
G1 X132.722 Y64.857 E.50939
G1 X133.041 Y64.918 E.0163
G1 X133.325 Y65.102 E.01698
G1 X133.515 Y65.381 E.01694
G1 X133.584 Y65.719 E.01731
G1 X133.584 Y68.873 E.15829
G1 X133.537 Y69.154 E.0143
G1 X133.381 Y69.429 E.01587
G1 X133.141 Y69.626 E.01558
G1 X132.887 Y69.719 E.01357
G1 X132.722 Y69.735 E.00832
G1 X122.572 Y69.735 E.50939
G1 X122.119 Y69.584 E.02396
G1 X122.119 Y76.235 E.33379
G1 X122.572 Y76.084 E.02396
G1 X131.672 Y76.084 E.45669
G1 X132.048 Y76.17 E.01936
G1 X132.34 Y76.4 E.01865
G1 X132.498 Y76.697 E.01688
G1 X132.534 Y76.946 E.01263
G1 X132.534 Y79.797 E.14308
G1 X132.46 Y80.146 E.0179
G1 X132.286 Y80.402 E.01553
G1 X132.062 Y80.566 E.01393
G1 X131.821 Y80.646 E.01274
G1 X131.672 Y80.659 E.00751
G1 X122.572 Y80.659 E.45669
G1 X122.119 Y80.508 E.02396
G1 X122.119 Y86.856 E.31858
G1 X122.572 Y86.705 E.02396
G1 X132.722 Y86.705 E.50939
G1 X133.039 Y86.765 E.01619
G1 X133.304 Y86.931 E.01569
G1 X133.506 Y87.207 E.01716
G1 X133.579 Y87.473 E.01384
G1 X133.584 Y90.715 E.1627
G1 X133.533 Y91.007 E.01488
G1 X133.384 Y91.267 E.01504
G1 X133.121 Y91.479 E.01695
G1 X132.871 Y91.564 E.01325
G1 X132.722 Y91.577 E.00751
G1 X122.572 Y91.577 E.50939
G1 X122.254 Y91.516 E.01625
G1 X122.036 Y91.39 E.01264
G1 X121.914 Y91.165 E.01284
G1 X121.793 Y91.39 E.01282
G1 X121.425 Y91.561 E.02036
G1 X121.399 Y91.563 E.00131
G1 X121.36 Y91.208 F3600
G1 F900
G1 X121.306 Y91.23 E.00293
G1 X117.059 Y91.233 E.21314
G1 X116.851 Y91.189 E.01067
G1 X116.642 Y91.022 E.01343
G1 X116.547 Y90.792 E.01249
G1 X116.541 Y90.133 E.03307
G1 X116.541 Y65.719 E1.22524
G1 X116.61 Y65.462 E.01335
G1 X116.798 Y65.272 E.01341
G1 X117.059 Y65.202 E.01356
G1 X121.257 Y65.202 E.21068
G1 X121.45 Y65.239 E.00986
G1 X121.581 Y65.316 E.00763
G1 X121.758 Y65.719 E.02209
;WIDTH:0.387929
G1 X121.758 Y68.873 E.14357
;WIDTH:0.42
G1 X121.774 Y69.53 E.03298
G1 X121.774 Y76.288 E.33916
G1 X121.758 Y76.946 E.03303
;WIDTH:0.387929
G1 X121.758 Y79.797 E.12977
;WIDTH:0.42
G1 X121.774 Y80.454 E.03298
G1 X121.774 Y86.909 E.32395
G1 X121.758 Y87.567 E.03303
;WIDTH:0.387929
G1 X121.758 Y90.715 E.14329
;WIDTH:0.42
G1 X121.579 Y91.12 E.02222
G1 X121.416 Y91.186 E.00883
G1 X121.257 Y90.888 F3600
;TYPE:External perimeter
G1 F900
G1 X117.059 Y90.888 E.21068
G1 X116.92 Y90.817 E.00783
G1 X116.886 Y90.609 E.01058
G1 X116.886 Y90.133 E.02389
G1 X116.886 Y65.719 E1.22524
G1 X116.96 Y65.578 E.00799
G1 X117.059 Y65.546 E.00522
G1 X121.257 Y65.546 E.21068
G1 X121.365 Y65.585 E.00576
G1 X121.429 Y65.719 E.00745
G1 X121.429 Y90.715 E1.25445
G1 X121.364 Y90.85 E.00752
G1 X121.313 Y90.868 E.00271
G1 X120.914 Y90.885 F3600
G1 E-3.2 F2400
G1 X132.762 Y91.229 F3600
G1 E3.2 F2400
;TYPE:Perimeter
G1 F900
G1 X132.722 Y91.233 E.00202
G1 X122.572 Y91.233 E.50939
G1 X122.381 Y91.196 E.00976
G1 X122.25 Y91.12 E.0076
G1 X122.071 Y90.715 E.02222
;WIDTH:0.387929
G1 X122.071 Y87.567 E.14329
;WIDTH:0.42
G1 X122.262 Y87.153 E.02288
G1 X122.572 Y87.05 E.01639
G1 X132.722 Y87.05 E.50939
G1 X132.981 Y87.119 E.01345
G1 X133.167 Y87.304 E.01317
G1 X133.239 Y87.567 E.01368
G1 X133.239 Y90.715 E.15799
G1 X133.186 Y90.943 E.01175
G1 X133.014 Y91.142 E.0132
G1 X132.821 Y91.221 E.01047
G1 X132.722 Y90.888 F3600
;TYPE:External perimeter
G1 F900
G1 X122.572 Y90.888 E.50939
G1 X122.465 Y90.85 E.0057
G1 X122.4 Y90.715 E.00752
G1 X122.4 Y87.567 E.15799
G1 X122.469 Y87.429 E.00774
G1 X122.572 Y87.394 E.00546
G1 X132.722 Y87.394 E.50939
G1 X132.861 Y87.465 E.00783
G1 X132.894 Y87.567 E.00538
G1 X132.894 Y90.715 E.15799
G1 X132.834 Y90.847 E.00728
G1 X132.778 Y90.867 E.00298
G1 X132.379 Y90.885 F3600
G1 E-3.2 F2400
G1 X131.726 Y80.307 F3600
G1 E3.2 F2400
;TYPE:Perimeter
G1 F900
G1 X131.672 Y80.314 E.00273
G1 X122.572 Y80.314 E.45669
G1 X122.262 Y80.21 E.01641
G1 X122.076 Y79.884 E.01884
;WIDTH:0.392912
G1 X122.071 Y79.797 E.00403
;WIDTH:0.387929
G1 X122.071 Y76.946 E.12977
;WIDTH:0.42
G1 X122.262 Y76.532 E.02288
G1 X122.572 Y76.429 E.01639
G1 X131.672 Y76.429 E.45669
G1 X131.898 Y76.48 E.01163
G1 X132.103 Y76.659 E.01366
G1 X132.189 Y76.946 E.01504
G1 X132.189 Y79.797 E.14308
G1 X132.13 Y80.037 E.0124
G1 X132.04 Y80.16 E.00765
G1 X131.809 Y80.295 E.01343
G1 X131.786 Y80.299 E.00117
G1 X131.672 Y79.969 F3600
;TYPE:External perimeter
G1 F900
G1 X122.572 Y79.969 E.45669
G1 X122.469 Y79.935 E.00544
G1 X122.4 Y79.797 E.00774
G1 X122.4 Y76.946 E.14308
G1 X122.469 Y76.808 E.00774
G1 X122.572 Y76.773 E.00546
G1 X131.672 Y76.773 E.45669
G1 X131.806 Y76.837 E.00745
G1 X131.845 Y76.946 E.00581
G1 X131.845 Y79.797 E.14308
G1 X131.795 Y79.918 E.00657
G1 X131.728 Y79.946 E.00364
G1 X131.328 Y79.966 F3600
G1 E-3.2 F2400
G1 X122.484 Y69.361 F3600
G1 E3.2 F2400
;TYPE:Perimeter
G1 F900
G1 X122.262 Y69.286 E.01176
G1 X122.076 Y68.96 E.01884
;WIDTH:0.392912
G1 X122.071 Y68.873 E.00403
;WIDTH:0.387929
G1 X122.071 Y65.719 E.14357
;WIDTH:0.42
G1 X122.247 Y65.316 E.02207
G1 X122.379 Y65.239 E.00767
G1 X122.572 Y65.202 E.00986
G1 X132.722 Y65.202 E.50939
G1 X132.976 Y65.268 E.01317
G1 X133.164 Y65.451 E.01317
G1 X133.239 Y65.719 E.01397
G1 X133.239 Y68.873 E.15829
G1 X133.164 Y69.141 E.01397
G1 X132.974 Y69.325 E.01327
G1 X132.722 Y69.39 E.01306
G1 X122.572 Y69.39 E.50939
G1 X122.541 Y69.38 E.00163
G1 X122.572 Y69.045 F3600
;TYPE:External perimeter
G1 F900
G1 X122.469 Y69.011 E.00544
G1 X122.4 Y68.873 E.00774
G1 X122.4 Y65.719 E.15829
G1 X122.508 Y65.559 E.00969
G1 X132.722 Y65.546 E.5126
G1 X132.857 Y65.612 E.00754
G1 X132.894 Y65.719 E.00568
G1 X132.894 Y68.873 E.15829
G1 X132.836 Y69.002 E.0071
G1 X132.722 Y69.045 E.00611
G1 X122.632 Y69.045 E.50638
G1 X122.392 Y68.725 F3600
G1 E-3.2 F2400
G1 X101.891 Y86.695 F3600
G1 E3.2 F2400
;TYPE:Perimeter
G1 F900
G1 X101.687 Y86.705 E.01025
G1 X100.015 Y86.705 E.08391
G1 X99.568 Y86.854 E.02365
G1 X99.568 Y78.481 E.42021
G1 X100.015 Y78.63 E.02365
G1 X102.306 Y78.63 E.11498
G1 X103.098 Y78.714 E.03997
G1 X103.789 Y78.934 E.03639
G1 X104.255 Y79.206 E.02708
G1 X104.728 Y79.636 E.03208
