; generated by PrusaSlicer 2.7.1+MacOS-arm64 on 2024-03-23 at 00:16:19 UTC


;
;
; 

; external perimeters extrusion width = 0.45mm
; perimeters extrusion width = 0.45mm
; infill extrusion width = 0.45mm
; solid infill extrusion width = 0.45mm
; top infill extrusion width = 0.40mm
; first layer extrusion width = 0.42mm

M104 S200 ; set temperature
;TYPE:Custom
;Stats

;printbedMaxX = 180
;printbedMaxY = 180 
;firstLayerXDim = 130.435
;firstLayerYDim = 130.435
;firstLayerCenterX = 90
;firstLayerCenterY = 90

G90 ; use absolute coordinates
M83 ; extruder relative mode
;M104 S170 ; set extruder temp for bed leveling
;M109 R170 ; wait for bed leveling temp
G28 ; home all without mesh bed level
;G30; 
;G29 ; mesh bed leveling 
G92 E0.0
;G1 Y-2.0 X179 F2400
;G1 Z3 F720
;M109 S200 ; wait for extruder temp

;;;;;;auto probe print area only;;;;;;
set global.minProbeX = 24.7827
set global.maxProbeX = 155.217
set global.minProbeY = 24.7827
set global.maxProbeY = 155.217
T0 ; select tool 1
;M568 P0 R{heat.coldExtrudeTemperature+5} S200 A1 ; (set extruder to standby to soften any protruding filament before probing )
M106 P0 S0 ;Start with fan off
M116 P0; Wait for bed before doing mesh probe.
M561 ; clear any bed transform
M98 P"0:/sys/mesh.g" A24.7827 B155.217 C24.7827 D155.217 N30 ; set N to your desired distance between points
G29 S1 ; load small mesh
G1 X10 Y2  F2400 ; Move to Center
G1 Z3 F720 ; Raise Nozzle 
M568 P0 R{heat.coldExtrudeTemperature+5} S200 A2 ; (set standby and active temperatures for active tool.  Standby is 5 degrees above cold extrude temp )
M116 P0; Wait for all temps to stabilise

; intro line
;G1 X35 F1000
;G1 Z0.2 F720
;G1 X45.0 E8.0 F900
;G1 X40.0 E10.0 F700
;G92 E0.0

M221 S95 ; set flow

;START PRINTING

M109 S200 ; set temperature and wait for it to be reached
G21 ; set units to millimeters
G90 ; use absolute coordinates
M83 ; use relative distances for extrusion
; Filament gcode
M107
;LAYER_CHANGE
;Z:0.35
;HEIGHT:0.35
G1 Z.35 F7800
;LAYER_NUMBER = 0
;LAYER_Z = 0.35
G1 E-3.2 F2400
G1 X54.591 Y54.635 F7800
G1 Z.35
G1 E3.2 F2400
;TYPE:Skirt/Brim
;WIDTH:0.42
G1 F600
G1 X82.525 Y26.805 E1.97889
G1 X84.37 Y25.527 E.11264
G1 X87.003 Y24.955 E.13522
G1 X92.997 Y24.955 E.30081
G1 X95.206 Y25.352 E.11264
G1 X97.475 Y26.805 E.13522
G1 X125.409 Y54.635 E1.97889
G1 X153.195 Y82.525 E1.97577
G1 X154.473 Y84.37 E.11264
G1 X155.045 Y87.003 E.13522
G1 X155.045 Y92.997 E.30081
G1 X154.648 Y95.206 E.11264
G1 X153.195 Y97.475 E.13522
G1 X125.409 Y125.365 E1.97577
G1 X97.475 Y153.195 E1.97889
G1 X95.63 Y154.473 E.11264
G1 X92.997 Y155.045 E.13522
G1 X87.003 Y155.045 E.30081
G1 X84.794 Y154.648 E.11264
G1 X82.525 Y153.195 E.13522
G1 X54.591 Y125.365 E1.97889
G1 X26.805 Y97.475 E1.97577
G1 X25.527 Y95.63 E.11264
G1 X24.955 Y92.997 E.13522
G1 X24.955 Y87.003 E.30081
G1 X25.352 Y84.794 E.11264
G1 X26.805 Y82.525 E.13522
G1 X54.549 Y54.677 E1.97279
G1 E-3.2 F2400
G1 X54.549 Y54.677 F7800
G1 X59.345 Y59.332
G1 E3.2 F2400
G1 F600
G1 X62.687 Y56.321 E.22575
G1 X66.308 Y53.682 E.22486
G1 X70.183 Y51.431 E.2249
G1 X74.285 Y49.586 E.22573
G1 X78.557 Y48.175 E.22579
G1 X82.952 Y47.215 E.22577
G1 X86.638 Y46.802 E.18614
G1 X86.638 Y32.285 E.72855
G1 X86.707 Y32.091 E.01033
G1 X87.054 Y31.728 E.0252
G1 X87.285 Y31.638 E.01244
G1 X92.758 Y31.644 E.27467
G1 X92.957 Y31.738 E.01105
G1 X93.271 Y32.052 E.02229
G1 X93.362 Y32.285 E.01255
G1 X93.362 Y46.802 E.72855
G1 X97.048 Y47.215 E.18614
G1 X101.391 Y48.161 E.22307
G1 X105.715 Y49.586 E.22848
G1 X109.785 Y51.415 E.22393
G1 X113.662 Y53.663 E.22491
G1 X117.341 Y56.344 E.22846
G1 X120.668 Y59.345 E.22486
G1 X123.679 Y62.687 E.22575
G1 X126.318 Y66.308 E.22486
G1 X128.569 Y70.183 E.2249
G1 X130.414 Y74.285 E.22573
G1 X131.825 Y78.557 E.22579
G1 X132.785 Y82.952 E.22577
G1 X133.198 Y86.638 E.18614
G1 X147.758 Y86.644 E.73071
G1 X147.957 Y86.738 E.01105
G1 X148.271 Y87.052 E.02229
G1 X148.362 Y87.285 E.01255
G1 X148.362 Y92.715 E.27251
G1 X148.271 Y92.948 E.01255
G1 X147.948 Y93.271 E.02292
G1 X147.715 Y93.362 E.01255
G1 X133.198 Y93.362 E.72855
G1 X132.785 Y97.048 E.18614
G1 X131.839 Y101.391 E.22307
G1 X130.414 Y105.715 E.22848
G1 X128.585 Y109.785 E.22393
G1 X126.337 Y113.662 E.22491
G1 X123.656 Y117.341 E.22846
G1 X120.655 Y120.668 E.22486
G1 X117.313 Y123.679 E.22575
G1 X113.692 Y126.318 E.22486
G1 X109.817 Y128.569 E.2249
G1 X105.715 Y130.414 E.22573
G1 X101.443 Y131.825 E.22579
G1 X97.048 Y132.785 E.22577
G1 X93.362 Y133.198 E.18614
G1 X93.356 Y147.758 E.73071
G1 X93.262 Y147.957 E.01105
G1 X92.948 Y148.271 E.02229
G1 X92.715 Y148.362 E.01255
G1 X87.285 Y148.362 E.27251
G1 X87.052 Y148.271 E.01255
G1 X86.729 Y147.948 E.02292
G1 X86.638 Y147.715 E.01255
G1 X86.638 Y133.198 E.72855
G1 X82.952 Y132.785 E.18614
G1 X78.609 Y131.839 E.22307
G1 X74.285 Y130.414 E.22848
G1 X70.215 Y128.585 E.22393
G1 X66.338 Y126.337 E.22491
G1 X62.659 Y123.656 E.22846
G1 X59.332 Y120.655 E.22486
G1 X56.321 Y117.313 E.22575
G1 X53.682 Y113.692 E.22486
G1 X51.431 Y109.817 E.2249
G1 X49.586 Y105.715 E.22573
G1 X48.175 Y101.443 E.22579
G1 X47.215 Y97.048 E.22577
G1 X46.802 Y93.362 E.18614
G1 X32.242 Y93.356 E.73071
G1 X32.043 Y93.262 E.01105
G1 X31.729 Y92.948 E.02229
G1 X31.638 Y92.715 E.01255
G1 X31.638 Y87.285 E.27251
G1 X31.729 Y87.052 E.01255
G1 X32.052 Y86.729 E.02292
G1 X32.285 Y86.638 E.01255
G1 X46.802 Y86.638 E.72855
G1 X47.215 Y82.952 E.18614
G1 X48.161 Y78.609 E.22307
G1 X49.586 Y74.285 E.22848
G1 X51.423 Y70.199 E.22483
G1 X53.663 Y66.338 E.22402
G1 X56.344 Y62.659 E.22846
G1 X59.305 Y59.377 E.22184
G1 X59.56 Y59.607 F7800
G1 F600
G1 X59.582 Y59.582 E.00167
G1 X62.897 Y56.595 E.22394
G1 X66.489 Y53.976 E.2231
G1 X70.348 Y51.734 E.22398
G1 X74.418 Y49.904 E.22395
G1 X78.656 Y48.506 E.22396
G1 X83.016 Y47.554 E.22397
G1 X86.983 Y47.111 E.20033
G1 X86.983 Y32.323 E.74215
G1 X87.323 Y31.983 E.02413
G1 X92.677 Y31.983 E.2687
G1 X93.017 Y32.323 E.02413
G1 X93.017 Y47.111 E.74215
G1 X96.984 Y47.554 E.20033
G1 X101.309 Y48.496 E.22214
G1 X105.582 Y49.904 E.22579
G1 X109.636 Y51.726 E.22306
G1 X113.481 Y53.957 E.2231
G1 X117.116 Y56.606 E.22573
G1 X120.418 Y59.582 E.22309
G1 X123.405 Y62.897 E.22394
G1 X126.024 Y66.489 E.2231
G1 X128.266 Y70.348 E.22398
G1 X130.096 Y74.418 E.22395
G1 X131.494 Y78.656 E.22396
G1 X132.446 Y83.016 E.22397
G1 X132.889 Y86.983 E.20033
G1 X147.677 Y86.983 E.74215
G1 X148.017 Y87.323 E.02413
G1 X148.017 Y92.677 E.2687
G1 X147.677 Y93.017 E.02413
G1 X132.889 Y93.017 E.74215
G1 X132.446 Y96.984 E.20033
G1 X131.504 Y101.309 E.22214
G1 X130.096 Y105.582 E.22579
G1 X128.274 Y109.636 E.22306
G1 X126.043 Y113.481 E.2231
G1 X123.394 Y117.116 E.22573
G1 X120.418 Y120.418 E.22309
G1 X117.103 Y123.405 E.22394
G1 X113.511 Y126.024 E.2231
G1 X109.652 Y128.266 E.22398
G1 X105.582 Y130.096 E.22395
G1 X101.344 Y131.494 E.22396
G1 X96.984 Y132.446 E.22397
G1 X93.017 Y132.889 E.20033
G1 X93.017 Y147.677 E.74215
G1 X92.677 Y148.017 E.02413
G1 X87.323 Y148.017 E.2687
G1 X86.983 Y147.677 E.02413
G1 X86.983 Y132.889 E.74215
G1 X83.016 Y132.446 E.20033
G1 X78.691 Y131.504 E.22214
G1 X74.418 Y130.096 E.22579
G1 X70.364 Y128.274 E.22306
G1 X66.519 Y126.043 E.2231
G1 X62.884 Y123.394 E.22573
G1 X59.582 Y120.418 E.22309
G1 X56.595 Y117.103 E.22394
G1 X53.976 Y113.511 E.2231
G1 X51.734 Y109.652 E.22398
G1 X49.904 Y105.582 E.22395
G1 X48.506 Y101.344 E.22396
G1 X47.554 Y96.984 E.22397
G1 X47.111 Y93.017 E.20033
G1 X32.323 Y93.017 E.74215
G1 X31.983 Y92.677 E.02413
G1 X31.983 Y87.323 E.2687
G1 X32.323 Y86.983 E.02413
G1 X47.111 Y86.983 E.74215
G1 X47.554 Y83.016 E.20033
G1 X48.496 Y78.691 E.22214
G1 X49.904 Y74.418 E.22579
G1 X51.726 Y70.364 E.22306
G1 X53.957 Y66.519 E.2231
G1 X56.606 Y62.884 E.22573
G1 X59.52 Y59.652 E.21839
G1 X59.775 Y59.882 F7800
G1 F600
G1 X59.82 Y59.833 E.00334
G1 X63.108 Y56.868 E.22219
G1 X66.685 Y54.26 E.22216
G1 X70.513 Y52.037 E.22216
G1 X74.552 Y50.222 E.22223
G1 X78.756 Y48.836 E.22215
G1 X83.081 Y47.892 E.22216
G1 X87.328 Y47.419 E.21446
G1 X87.328 Y32.429 E.75229
G1 X87.429 Y32.328 E.00717
G1 X92.571 Y32.328 E.25806
G1 X92.672 Y32.429 E.00717
G1 X92.672 Y47.419 E.75229
G1 X96.919 Y47.892 E.21446
G1 X101.227 Y48.831 E.22128
G1 X105.449 Y50.222 E.22309
G1 X109.471 Y52.029 E.22128
G1 X113.3 Y54.25 E.22215
G1 X116.892 Y56.868 E.22307
G1 X120.167 Y59.82 E.22127
G1 X123.132 Y63.108 E.22219
G1 X125.74 Y66.685 E.22216
G1 X127.963 Y70.513 E.22216
G1 X129.778 Y74.552 E.22223
G1 X131.164 Y78.756 E.22215
G1 X132.108 Y83.081 E.22216
G1 X132.581 Y87.328 E.21446
G1 X147.571 Y87.328 E.75229
G1 X147.672 Y87.429 E.00717
G1 X147.672 Y92.571 E.25806
G1 X147.571 Y92.672 E.00717
G1 X132.581 Y92.672 E.75229
G1 X132.108 Y96.919 E.21446
G1 X131.169 Y101.227 E.22128
G1 X129.778 Y105.449 E.22309
G1 X127.971 Y109.471 E.22128
G1 X125.75 Y113.3 E.22215
G1 X123.132 Y116.892 E.22307
G1 X120.18 Y120.167 E.22127
G1 X116.892 Y123.132 E.22219
G1 X113.315 Y125.74 E.22216
G1 X109.487 Y127.963 E.22216
G1 X105.448 Y129.778 E.22223
G1 X101.244 Y131.164 E.22215
G1 X96.919 Y132.108 E.22216
G1 X92.672 Y132.581 E.21446
G1 X92.672 Y147.571 E.75229
G1 X92.571 Y147.672 E.00717
G1 X87.429 Y147.672 E.25806
G1 X87.328 Y147.571 E.00717
G1 X87.328 Y132.581 E.75229
G1 X83.081 Y132.108 E.21446
G1 X78.773 Y131.169 E.22128
G1 X74.551 Y129.778 E.22309
G1 X70.529 Y127.971 E.22128
G1 X66.7 Y125.75 E.22215
G1 X63.108 Y123.132 E.22307
G1 X59.833 Y120.18 E.22127
G1 X56.868 Y116.892 E.22219
G1 X54.26 Y113.315 E.22216
G1 X52.037 Y109.487 E.22216
G1 X50.222 Y105.448 E.22223
G1 X48.836 Y101.244 E.22215
G1 X47.892 Y96.919 E.22216
G1 X47.419 Y92.672 E.21446
G1 X32.429 Y92.672 E.75229
G1 X32.328 Y92.571 E.00717
G1 X32.328 Y87.429 E.25806
G1 X32.429 Y87.328 E.00717
G1 X47.419 Y87.328 E.75229
G1 X47.892 Y83.081 E.21446
G1 X48.831 Y78.773 E.22128
G1 X50.222 Y74.551 E.22309
G1 X52.029 Y70.529 E.22128
G1 X54.25 Y66.7 E.22215
G1 X56.868 Y63.108 E.22307
G1 X59.735 Y59.926 E.21495
G1 E-3.2 F2400
G1 X59.735 Y59.926 F7800
G1 X91.6 Y146.6
G1 E3.2 F2400
;TYPE:Perimeter
;WIDTH:0.42
G1 F600
G1 X88.4 Y146.6 E.16059
G1 X88.4 Y132.393 E.71299
G1 X88.374 Y132.183 E.01062
G1 X88.227 Y131.875 E.01713
G1 X87.956 Y131.639 E.01803
G1 X87.633 Y131.536 E.01701
G1 X83.264 Y131.05 E.22061
G1 X79.047 Y130.131 E.2166
G1 X74.948 Y128.78 E.2166
G1 X71.011 Y127.012 E.21659
G1 X67.279 Y124.846 E.21655
G1 X63.791 Y122.304 E.2166
G1 X60.585 Y119.415 E.21658
G1 X57.696 Y116.209 E.21658
G1 X55.154 Y112.721 E.2166
G1 X52.988 Y108.989 E.21655
G1 X51.22 Y105.052 E.21659
G1 X49.869 Y100.953 E.2166
G1 X48.95 Y96.736 E.2166
G1 X48.464 Y92.367 E.22061
G1 X48.361 Y92.044 E.01701
G1 X48.217 Y91.853 E.012
G1 X47.993 Y91.692 E.01384
G1 X47.607 Y91.6 E.01991
G1 X33.4 Y91.6 E.71299
G1 X33.4 Y88.4 E.16059
G1 X47.607 Y88.4 E.71299
G1 X47.817 Y88.374 E.01062
G1 X48.125 Y88.227 E.01713
G1 X48.361 Y87.956 E.01803
G1 X48.464 Y87.633 E.01701
G1 X48.95 Y83.264 E.22061
G1 X49.869 Y79.047 E.2166
G1 X51.22 Y74.948 E.2166
G1 X52.988 Y71.011 E.21659
G1 X55.154 Y67.279 E.21655
G1 X57.696 Y63.791 E.2166
G1 X60.585 Y60.585 E.21658
G1 X63.791 Y57.696 E.21658
G1 X67.279 Y55.154 E.2166
G1 X71.011 Y52.988 E.21655
G1 X74.948 Y51.22 E.21659
G1 X79.047 Y49.869 E.2166
G1 X83.264 Y48.95 E.2166
G1 X87.633 Y48.464 E.22061
G1 X87.956 Y48.361 E.01701
G1 X88.227 Y48.125 E.01803
G1 X88.374 Y47.817 E.01713
G1 X88.4 Y47.607 E.01062
G1 X88.4 Y33.4 E.71299
G1 X91.6 Y33.4 E.16059
G1 X91.6 Y47.607 E.71299
G1 X91.626 Y47.817 E.01062
G1 X91.773 Y48.125 E.01713
G1 X92.044 Y48.361 E.01803
G1 X92.367 Y48.464 E.01701
G1 X96.736 Y48.95 E.22061
G1 X100.953 Y49.869 E.2166
G1 X105.052 Y51.22 E.2166
G1 X108.989 Y52.988 E.21659
G1 X112.721 Y55.154 E.21655
G1 X116.209 Y57.696 E.2166
G1 X119.415 Y60.585 E.21658
G1 X122.304 Y63.791 E.21658
G1 X124.846 Y67.279 E.2166
G1 X127.012 Y71.011 E.21655
G1 X128.78 Y74.948 E.21659
G1 X130.131 Y79.047 E.2166
G1 X131.05 Y83.264 E.2166
G1 X131.536 Y87.633 E.22061
G1 X131.639 Y87.956 E.01701
G1 X131.875 Y88.227 E.01803
G1 X132.183 Y88.374 E.01713
G1 X132.393 Y88.4 E.01062
G1 X146.6 Y88.4 E.71299
G1 X146.6 Y90 E.0803
G1 X146.6 Y91.6 E.0803
G1 X132.393 Y91.6 E.71299
G1 X132.183 Y91.626 E.01062
G1 X131.875 Y91.773 E.01713
G1 X131.639 Y92.044 E.01803
G1 X131.536 Y92.367 E.01701
G1 X131.05 Y96.736 E.22061
G1 X130.131 Y100.953 E.2166
G1 X128.78 Y105.052 E.2166
G1 X127.012 Y108.989 E.21659
G1 X124.846 Y112.721 E.21655
G1 X122.304 Y116.209 E.2166
G1 X119.415 Y119.415 E.21658
G1 X116.209 Y122.304 E.21658
G1 X112.721 Y124.846 E.2166
G1 X108.989 Y127.012 E.21655
G1 X105.052 Y128.78 E.21659
G1 X100.953 Y130.131 E.2166
G1 X96.736 Y131.05 E.2166
G1 X92.367 Y131.536 E.22061
G1 X92.044 Y131.639 E.01701
G1 X91.853 Y131.783 E.012
G1 X91.692 Y132.007 E.01384
G1 X91.6 Y132.393 E.01991
G1 X91.6 Y146.54 E.70998
G1 X91.945 Y146.945 F7800
G1 F600
G1 X88.055 Y146.945 E.19522
G1 X88.055 Y132.393 E.7303
G1 X88 Y132.161 E.01197
G1 X87.855 Y131.984 E.01148
G1 X87.595 Y131.879 E.01407
G1 X83.208 Y131.391 E.22152
G1 X78.956 Y130.464 E.2184
G1 X74.823 Y129.102 E.21839
G1 X70.854 Y127.32 E.21834
G1 X67.09 Y125.135 E.21842
G1 X63.573 Y122.572 E.2184
G1 X60.341 Y119.659 E.21836
G1 X57.428 Y116.427 E.21836
G1 X54.865 Y112.91 E.2184
G1 X52.68 Y109.146 E.21842
G1 X50.898 Y105.177 E.21834
G1 X49.536 Y101.044 E.21839
G1 X48.609 Y96.792 E.2184
G1 X48.121 Y92.405 E.22152
G1 X48.016 Y92.145 E.01407
G1 X47.839 Y92 E.01148
G1 X47.607 Y91.945 E.01197
G1 X33.055 Y91.945 E.7303
G1 X33.055 Y88.055 E.19522
G1 X47.607 Y88.055 E.7303
G1 X47.839 Y88 E.01197
G1 X48.016 Y87.855 E.01148
G1 X48.121 Y87.595 E.01407
G1 X48.609 Y83.208 E.22152
G1 X49.536 Y78.956 E.2184
G1 X50.898 Y74.823 E.21839
G1 X52.68 Y70.854 E.21834
G1 X54.865 Y67.09 E.21842
G1 X57.428 Y63.573 E.2184
G1 X60.341 Y60.341 E.21836
G1 X63.573 Y57.428 E.21836
G1 X67.09 Y54.865 E.2184
G1 X70.854 Y52.68 E.21842
G1 X74.823 Y50.898 E.21834
G1 X78.956 Y49.536 E.21839
G1 X83.208 Y48.609 E.2184
G1 X87.595 Y48.121 E.22152
G1 X87.855 Y48.016 E.01407
G1 X88 Y47.839 E.01148
G1 X88.055 Y47.607 E.01197
G1 X88.055 Y33.055 E.7303
G1 X91.945 Y33.055 E.19522
G1 X91.945 Y47.607 E.7303
G1 X92 Y47.839 E.01197
G1 X92.145 Y48.016 E.01148
G1 X92.405 Y48.121 E.01407
G1 X96.792 Y48.609 E.22152
G1 X101.044 Y49.536 E.2184
G1 X105.177 Y50.898 E.21839
G1 X109.146 Y52.68 E.21834
G1 X112.91 Y54.865 E.21842
G1 X116.427 Y57.428 E.2184
G1 X119.659 Y60.341 E.21836
G1 X122.572 Y63.573 E.21836
G1 X125.135 Y67.09 E.2184
G1 X127.32 Y70.854 E.21842
G1 X129.102 Y74.823 E.21834
G1 X130.464 Y78.956 E.21839
G1 X131.391 Y83.208 E.2184
G1 X131.879 Y87.595 E.22152
G1 X131.984 Y87.855 E.01407
G1 X132.161 Y88 E.01148
G1 X132.393 Y88.055 E.01197
G1 X146.945 Y88.055 E.7303
G1 X146.945 Y90 E.09761
G1 X146.945 Y91.945 E.09761
G1 X132.393 Y91.945 E.7303
G1 X132.161 Y92 E.01197
G1 X131.984 Y92.145 E.01148
G1 X131.879 Y92.405 E.01407
G1 X131.391 Y96.792 E.22152
G1 X130.464 Y101.044 E.2184
G1 X129.102 Y105.177 E.21839
G1 X127.32 Y109.146 E.21834
G1 X125.135 Y112.91 E.21842
G1 X122.572 Y116.427 E.2184
G1 X119.659 Y119.659 E.21836
G1 X116.427 Y122.572 E.21836
G1 X112.91 Y125.135 E.2184
G1 X109.146 Y127.32 E.21842
G1 X105.177 Y129.102 E.21834
G1 X101.044 Y130.464 E.21839
G1 X96.792 Y131.391 E.2184
G1 X92.405 Y131.879 E.22152
G1 X92.145 Y131.984 E.01407
G1 X92 Y132.161 E.01148
G1 X91.945 Y132.393 E.01197
G1 X91.945 Y146.885 E.72729
G1 X92.29 Y147.29 F7800
;TYPE:External perimeter
G1 F600
G1 X87.71 Y147.29 E.22985
G1 X87.71 Y132.393 E.74762
G1 X87.675 Y132.289 E.00551
G1 X87.557 Y132.221 E.00683
G1 X83.152 Y131.732 E.22243
G1 X78.865 Y130.797 E.2202
G1 X74.698 Y129.424 E.22018
G1 X70.696 Y127.627 E.22016
G1 X66.902 Y125.424 E.22018
G1 X63.356 Y122.841 E.22017
G1 X60.097 Y119.903 E.22021
G1 X57.159 Y116.644 E.22021
G1 X54.576 Y113.098 E.22017
G1 X52.373 Y109.304 E.22018
G1 X50.576 Y105.302 E.22016
G1 X49.203 Y101.135 E.22018
G1 X48.268 Y96.848 E.2202
G1 X47.839 Y92.985 E.19506
G1 X47.743 Y92.357 E.03188
G1 X47.607 Y92.29 E.00761
G1 X32.71 Y92.29 E.74762
G1 X32.71 Y87.71 E.22985
G1 X47.607 Y87.71 E.74762
G1 X47.711 Y87.675 E.00551
G1 X47.779 Y87.557 E.00683
G1 X48.268 Y83.152 E.22243
G1 X49.203 Y78.865 E.2202
G1 X50.576 Y74.698 E.22018
